( Pocket 1 )
( USBCNC Postprocessor )
N20G00G21G17G90G40G49
N30G80
N40G00G43Z20.000H1
N50S3000M03
N60G94
N70X0.000Y0.000F600.0
N80G00X33.848Y57.423Z6.000
N90G01Z-0.100F20.0
N100G2X34.748Y56.523I0.000J-0.900F600.0
N110G2X33.848Y55.623I-0.900J0.000
N120G2X32.948Y56.523I0.000J0.900
N130G2X33.848Y57.423I0.900J0.000
N140G00Z6.000
N150G01Z-0.200F20.0
N160G2X34.748Y56.523I0.000J-0.900F600.0
N170G2X33.848Y55.623I-0.900J0.000
N180G2X32.948Y56.523I0.000J0.900
N190G2X33.848Y57.423I0.900J0.000
N200G00Z6.000
N210G01Z-0.300F20.0
N220G2X34.748Y56.523I0.000J-0.900F600.0
N230G2X33.848Y55.623I-0.900J0.000
N240G2X32.948Y56.523I0.000J0.900
N250G2X33.848Y57.423I0.900J0.000
N260G00Z6.000
N270G01Z-0.400F20.0
N280G2X34.748Y56.523I0.000J-0.900F600.0
N290G2X33.848Y55.623I-0.900J0.000
N300G2X32.948Y56.523I0.000J0.900
N310G2X33.848Y57.423I0.900J0.000
N320G00Z6.000
N330G01Z-0.500F20.0
N340G2X34.748Y56.523I0.000J-0.900F600.0
N350G2X33.848Y55.623I-0.900J0.000
N360G2X32.948Y56.523I0.000J0.900
N370G2X33.848Y57.423I0.900J0.000
N380G00Z6.000
N390G01Z-0.600F20.0
N400G2X34.748Y56.523I0.000J-0.900F600.0
N410G2X33.848Y55.623I-0.900J0.000
N420G2X32.948Y56.523I0.000J0.900
N430G2X33.848Y57.423I0.900J0.000
N440G00Z6.000
N450G01Z-0.700F20.0
N460G2X34.748Y56.523I0.000J-0.900F600.0
N470G2X33.848Y55.623I-0.900J0.000
N480G2X32.948Y56.523I0.000J0.900
N490G2X33.848Y57.423I0.900J0.000
N500G00Z6.000
N510G01Z-0.800F20.0
N520G2X34.748Y56.523I0.000J-0.900F600.0
N530G2X33.848Y55.623I-0.900J0.000
N540G2X32.948Y56.523I0.000J0.900
N550G2X33.848Y57.423I0.900J0.000
N560G00Z6.000
N570G01Z-0.900F20.0
N580G2X34.748Y56.523I0.000J-0.900F600.0
N590G2X33.848Y55.623I-0.900J0.000
N600G2X32.948Y56.523I0.000J0.900
N610G2X33.848Y57.423I0.900J0.000
N620G00Z6.000
N630G01Z-1.000F20.0
N640G2X34.748Y56.523I0.000J-0.900F600.0
N650G2X33.848Y55.623I-0.900J0.000
N660G2X32.948Y56.523I0.000J0.900
N670G2X33.848Y57.423I0.900J0.000
N680G00Z6.000
N690G01Z-1.100F20.0
N700G2X34.748Y56.523I0.000J-0.900F600.0
N710G2X33.848Y55.623I-0.900J0.000
N720G2X32.948Y56.523I0.000J0.900
N730G2X33.848Y57.423I0.900J0.000
N740G00Z6.000
N750G01Z-1.200F20.0
N760G2X34.748Y56.523I0.000J-0.900F600.0
N770G2X33.848Y55.623I-0.900J0.000
N780G2X32.948Y56.523I0.000J0.900
N790G2X33.848Y57.423I0.900J0.000
N800G00Z6.000
N810G01Z-1.300F20.0
N820G2X34.748Y56.523I0.000J-0.900F600.0
N830G2X33.848Y55.623I-0.900J0.000
N840G2X32.948Y56.523I0.000J0.900
N850G2X33.848Y57.423I0.900J0.000
N860G00Z6.000
N870G01Z-1.400F20.0
N880G2X34.748Y56.523I0.000J-0.900F600.0
N890G2X33.848Y55.623I-0.900J0.000
N900G2X32.948Y56.523I0.000J0.900
N910G2X33.848Y57.423I0.900J0.000
N920G00Z6.000
N930G01Z-1.500F20.0
N940G2X34.748Y56.523I0.000J-0.900F600.0
N950G2X33.848Y55.623I-0.900J0.000
N960G2X32.948Y56.523I0.000J0.900
N970G2X33.848Y57.423I0.900J0.000
N980G00Z6.000
N990G01Z-1.600F20.0
N1000G2X34.748Y56.523I0.000J-0.900F600.0
N1010G2X33.848Y55.623I-0.900J0.000
N1020G2X32.948Y56.523I0.000J0.900
N1030G2X33.848Y57.423I0.900J0.000
N1040G00Z6.000
N1050G01Z-1.700F20.0
N1060G2X34.748Y56.523I0.000J-0.900F600.0
N1070G2X33.848Y55.623I-0.900J0.000
N1080G2X32.948Y56.523I0.000J0.900
N1090G2X33.848Y57.423I0.900J0.000
N1100G00Z6.000
N1110G01Z-1.800F20.0
N1120G2X34.748Y56.523I0.000J-0.900F600.0
N1130G2X33.848Y55.623I-0.900J0.000
N1140G2X32.948Y56.523I0.000J0.900
N1150G2X33.848Y57.423I0.900J0.000
N1160G00Z6.000
N1170G01Z-1.900F20.0
N1180G2X34.748Y56.523I0.000J-0.900F600.0
N1190G2X33.848Y55.623I-0.900J0.000
N1200G2X32.948Y56.523I0.000J0.900
N1210G2X33.848Y57.423I0.900J0.000
N1220G00Z6.000
N1230G01Z-2.000F20.0
N1240G2X34.748Y56.523I0.000J-0.900F600.0
N1250G2X33.848Y55.623I-0.900J0.000
N1260G2X32.948Y56.523I0.000J0.900
N1270G2X33.848Y57.423I0.900J0.000
N1280G00Z6.000
N1290G01Z-2.100F20.0
N1300G2X34.748Y56.523I0.000J-0.900F600.0
N1310G2X33.848Y55.623I-0.900J0.000
N1320G2X32.948Y56.523I0.000J0.900
N1330G2X33.848Y57.423I0.900J0.000
N1340G00Z6.000
N1350G01Z-2.200F20.0
N1360G2X34.748Y56.523I0.000J-0.900F600.0
N1370G2X33.848Y55.623I-0.900J0.000
N1380G2X32.948Y56.523I0.000J0.900
N1390G2X33.848Y57.423I0.900J0.000
N1400G00Z6.000
N1410G01Z-2.300F20.0
N1420G2X34.748Y56.523I0.000J-0.900F600.0
N1430G2X33.848Y55.623I-0.900J0.000
N1440G2X32.948Y56.523I0.000J0.900
N1450G2X33.848Y57.423I0.900J0.000
N1460G00Z6.000
N1470G01Z-2.400F20.0
N1480G2X34.748Y56.523I0.000J-0.900F600.0
N1490G2X33.848Y55.623I-0.900J0.000
N1500G2X32.948Y56.523I0.000J0.900
N1510G2X33.848Y57.423I0.900J0.000
N1520G00Z6.000
N1530G01Z-2.500F20.0
N1540G2X34.748Y56.523I0.000J-0.900F600.0
N1550G2X33.848Y55.623I-0.900J0.000
N1560G2X32.948Y56.523I0.000J0.900
N1570G2X33.848Y57.423I0.900J0.000
N1580G00Z6.000
N1590G01Z-2.600F20.0
N1600G2X34.748Y56.523I0.000J-0.900F600.0
N1610G2X33.848Y55.623I-0.900J0.000
N1620G2X32.948Y56.523I0.000J0.900
N1630G2X33.848Y57.423I0.900J0.000
N1640G00Z6.000
N1650G01Z-2.700F20.0
N1660G2X34.748Y56.523I0.000J-0.900F600.0
N1670G2X33.848Y55.623I-0.900J0.000
N1680G2X32.948Y56.523I0.000J0.900
N1690G2X33.848Y57.423I0.900J0.000
N1700G00Z6.000
N1710G01Z-2.800F20.0
N1720G2X34.748Y56.523I0.000J-0.900F600.0
N1730G2X33.848Y55.623I-0.900J0.000
N1740G2X32.948Y56.523I0.000J0.900
N1750G2X33.848Y57.423I0.900J0.000
N1760G00Z6.000
N1770G01Z-2.900F20.0
N1780G2X34.748Y56.523I0.000J-0.900F600.0
N1790G2X33.848Y55.623I-0.900J0.000
N1800G2X32.948Y56.523I0.000J0.900
N1810G2X33.848Y57.423I0.900J0.000
N1820G00Z6.000
N1830G01Z-3.000F20.0
N1840G2X34.748Y56.523I0.000J-0.900F600.0
N1850G2X33.848Y55.623I-0.900J0.000
N1860G2X32.948Y56.523I0.000J0.900
N1870G2X33.848Y57.423I0.900J0.000
N1880G00Z6.000
N1890G00X41.848
N1900G01Z-0.100F20.0
N1910G2X42.748Y56.523I0.000J-0.900F600.0
N1920G2X41.848Y55.623I-0.900J0.000
N1930G2X40.948Y56.523I0.000J0.900
N1940G2X41.848Y57.423I0.900J0.000
N1950G00Z6.000
N1960G01Z-0.200F20.0
N1970G2X42.748Y56.523I0.000J-0.900F600.0
N1980G2X41.848Y55.623I-0.900J0.000
N1990G2X40.948Y56.523I0.000J0.900
N2000G2X41.848Y57.423I0.900J0.000
N2010G00Z6.000
N2020G01Z-0.300F20.0
N2030G2X42.748Y56.523I0.000J-0.900F600.0
N2040G2X41.848Y55.623I-0.900J0.000
N2050G2X40.948Y56.523I0.000J0.900
N2060G2X41.848Y57.423I0.900J0.000
N2070G00Z6.000
N2080G01Z-0.400F20.0
N2090G2X42.748Y56.523I0.000J-0.900F600.0
N2100G2X41.848Y55.623I-0.900J0.000
N2110G2X40.948Y56.523I0.000J0.900
N2120G2X41.848Y57.423I0.900J0.000
N2130G00Z6.000
N2140G01Z-0.500F20.0
N2150G2X42.748Y56.523I0.000J-0.900F600.0
N2160G2X41.848Y55.623I-0.900J0.000
N2170G2X40.948Y56.523I0.000J0.900
N2180G2X41.848Y57.423I0.900J0.000
N2190G00Z6.000
N2200G01Z-0.600F20.0
N2210G2X42.748Y56.523I0.000J-0.900F600.0
N2220G2X41.848Y55.623I-0.900J0.000
N2230G2X40.948Y56.523I0.000J0.900
N2240G2X41.848Y57.423I0.900J0.000
N2250G00Z6.000
N2260G01Z-0.700F20.0
N2270G2X42.748Y56.523I0.000J-0.900F600.0
N2280G2X41.848Y55.623I-0.900J0.000
N2290G2X40.948Y56.523I0.000J0.900
N2300G2X41.848Y57.423I0.900J0.000
N2310G00Z6.000
N2320G01Z-0.800F20.0
N2330G2X42.748Y56.523I0.000J-0.900F600.0
N2340G2X41.848Y55.623I-0.900J0.000
N2350G2X40.948Y56.523I0.000J0.900
N2360G2X41.848Y57.423I0.900J0.000
N2370G00Z6.000
N2380G01Z-0.900F20.0
N2390G2X42.748Y56.523I0.000J-0.900F600.0
N2400G2X41.848Y55.623I-0.900J0.000
N2410G2X40.948Y56.523I0.000J0.900
N2420G2X41.848Y57.423I0.900J0.000
N2430G00Z6.000
N2440G01Z-1.000F20.0
N2450G2X42.748Y56.523I0.000J-0.900F600.0
N2460G2X41.848Y55.623I-0.900J0.000
N2470G2X40.948Y56.523I0.000J0.900
N2480G2X41.848Y57.423I0.900J0.000
N2490G00Z6.000
N2500G01Z-1.100F20.0
N2510G2X42.748Y56.523I0.000J-0.900F600.0
N2520G2X41.848Y55.623I-0.900J0.000
N2530G2X40.948Y56.523I0.000J0.900
N2540G2X41.848Y57.423I0.900J0.000
N2550G00Z6.000
N2560G01Z-1.200F20.0
N2570G2X42.748Y56.523I0.000J-0.900F600.0
N2580G2X41.848Y55.623I-0.900J0.000
N2590G2X40.948Y56.523I0.000J0.900
N2600G2X41.848Y57.423I0.900J0.000
N2610G00Z6.000
N2620G01Z-1.300F20.0
N2630G2X42.748Y56.523I0.000J-0.900F600.0
N2640G2X41.848Y55.623I-0.900J0.000
N2650G2X40.948Y56.523I0.000J0.900
N2660G2X41.848Y57.423I0.900J0.000
N2670G00Z6.000
N2680G01Z-1.400F20.0
N2690G2X42.748Y56.523I0.000J-0.900F600.0
N2700G2X41.848Y55.623I-0.900J0.000
N2710G2X40.948Y56.523I0.000J0.900
N2720G2X41.848Y57.423I0.900J0.000
N2730G00Z6.000
N2740G01Z-1.500F20.0
N2750G2X42.748Y56.523I0.000J-0.900F600.0
N2760G2X41.848Y55.623I-0.900J0.000
N2770G2X40.948Y56.523I0.000J0.900
N2780G2X41.848Y57.423I0.900J0.000
N2790G00Z6.000
N2800G01Z-1.600F20.0
N2810G2X42.748Y56.523I0.000J-0.900F600.0
N2820G2X41.848Y55.623I-0.900J0.000
N2830G2X40.948Y56.523I0.000J0.900
N2840G2X41.848Y57.423I0.900J0.000
N2850G00Z6.000
N2860G01Z-1.700F20.0
N2870G2X42.748Y56.523I0.000J-0.900F600.0
N2880G2X41.848Y55.623I-0.900J0.000
N2890G2X40.948Y56.523I0.000J0.900
N2900G2X41.848Y57.423I0.900J0.000
N2910G00Z6.000
N2920G01Z-1.800F20.0
N2930G2X42.748Y56.523I0.000J-0.900F600.0
N2940G2X41.848Y55.623I-0.900J0.000
N2950G2X40.948Y56.523I0.000J0.900
N2960G2X41.848Y57.423I0.900J0.000
N2970G00Z6.000
N2980G01Z-1.900F20.0
N2990G2X42.748Y56.523I0.000J-0.900F600.0
N3000G2X41.848Y55.623I-0.900J0.000
N3010G2X40.948Y56.523I0.000J0.900
N3020G2X41.848Y57.423I0.900J0.000
N3030G00Z6.000
N3040G01Z-2.000F20.0
N3050G2X42.748Y56.523I0.000J-0.900F600.0
N3060G2X41.848Y55.623I-0.900J0.000
N3070G2X40.948Y56.523I0.000J0.900
N3080G2X41.848Y57.423I0.900J0.000
N3090G00Z6.000
N3100G01Z-2.100F20.0
N3110G2X42.748Y56.523I0.000J-0.900F600.0
N3120G2X41.848Y55.623I-0.900J0.000
N3130G2X40.948Y56.523I0.000J0.900
N3140G2X41.848Y57.423I0.900J0.000
N3150G00Z6.000
N3160G01Z-2.200F20.0
N3170G2X42.748Y56.523I0.000J-0.900F600.0
N3180G2X41.848Y55.623I-0.900J0.000
N3190G2X40.948Y56.523I0.000J0.900
N3200G2X41.848Y57.423I0.900J0.000
N3210G00Z6.000
N3220G01Z-2.300F20.0
N3230G2X42.748Y56.523I0.000J-0.900F600.0
N3240G2X41.848Y55.623I-0.900J0.000
N3250G2X40.948Y56.523I0.000J0.900
N3260G2X41.848Y57.423I0.900J0.000
N3270G00Z6.000
N3280G01Z-2.400F20.0
N3290G2X42.748Y56.523I0.000J-0.900F600.0
N3300G2X41.848Y55.623I-0.900J0.000
N3310G2X40.948Y56.523I0.000J0.900
N3320G2X41.848Y57.423I0.900J0.000
N3330G00Z6.000
N3340G01Z-2.500F20.0
N3350G2X42.748Y56.523I0.000J-0.900F600.0
N3360G2X41.848Y55.623I-0.900J0.000
N3370G2X40.948Y56.523I0.000J0.900
N3380G2X41.848Y57.423I0.900J0.000
N3390G00Z6.000
N3400G01Z-2.600F20.0
N3410G2X42.748Y56.523I0.000J-0.900F600.0
N3420G2X41.848Y55.623I-0.900J0.000
N3430G2X40.948Y56.523I0.000J0.900
N3440G2X41.848Y57.423I0.900J0.000
N3450G00Z6.000
N3460G01Z-2.700F20.0
N3470G2X42.748Y56.523I0.000J-0.900F600.0
N3480G2X41.848Y55.623I-0.900J0.000
N3490G2X40.948Y56.523I0.000J0.900
N3500G2X41.848Y57.423I0.900J0.000
N3510G00Z6.000
N3520G01Z-2.800F20.0
N3530G2X42.748Y56.523I0.000J-0.900F600.0
N3540G2X41.848Y55.623I-0.900J0.000
N3550G2X40.948Y56.523I0.000J0.900
N3560G2X41.848Y57.423I0.900J0.000
N3570G00Z6.000
N3580G01Z-2.900F20.0
N3590G2X42.748Y56.523I0.000J-0.900F600.0
N3600G2X41.848Y55.623I-0.900J0.000
N3610G2X40.948Y56.523I0.000J0.900
N3620G2X41.848Y57.423I0.900J0.000
N3630G00Z6.000
N3640G01Z-3.000F20.0
N3650G2X42.748Y56.523I0.000J-0.900F600.0
N3660G2X41.848Y55.623I-0.900J0.000
N3670G2X40.948Y56.523I0.000J0.900
N3680G2X41.848Y57.423I0.900J0.000
N3690G00Z6.000
N3700G00X49.848
N3710G01Z-0.100F20.0
N3720G2X50.748Y56.523I0.000J-0.900F600.0
N3730G2X49.848Y55.623I-0.900J0.000
N3740G2X48.948Y56.523I0.000J0.900
N3750G2X49.848Y57.423I0.900J0.000
N3760G00Z6.000
N3770G01Z-0.200F20.0
N3780G2X50.748Y56.523I0.000J-0.900F600.0
N3790G2X49.848Y55.623I-0.900J0.000
N3800G2X48.948Y56.523I0.000J0.900
N3810G2X49.848Y57.423I0.900J0.000
N3820G00Z6.000
N3830G01Z-0.300F20.0
N3840G2X50.748Y56.523I0.000J-0.900F600.0
N3850G2X49.848Y55.623I-0.900J0.000
N3860G2X48.948Y56.523I0.000J0.900
N3870G2X49.848Y57.423I0.900J0.000
N3880G00Z6.000
N3890G01Z-0.400F20.0
N3900G2X50.748Y56.523I0.000J-0.900F600.0
N3910G2X49.848Y55.623I-0.900J0.000
N3920G2X48.948Y56.523I0.000J0.900
N3930G2X49.848Y57.423I0.900J0.000
N3940G00Z6.000
N3950G01Z-0.500F20.0
N3960G2X50.748Y56.523I0.000J-0.900F600.0
N3970G2X49.848Y55.623I-0.900J0.000
N3980G2X48.948Y56.523I0.000J0.900
N3990G2X49.848Y57.423I0.900J0.000
N4000G00Z6.000
N4010G01Z-0.600F20.0
N4020G2X50.748Y56.523I0.000J-0.900F600.0
N4030G2X49.848Y55.623I-0.900J0.000
N4040G2X48.948Y56.523I0.000J0.900
N4050G2X49.848Y57.423I0.900J0.000
N4060G00Z6.000
N4070G01Z-0.700F20.0
N4080G2X50.748Y56.523I0.000J-0.900F600.0
N4090G2X49.848Y55.623I-0.900J0.000
N4100G2X48.948Y56.523I0.000J0.900
N4110G2X49.848Y57.423I0.900J0.000
N4120G00Z6.000
N4130G01Z-0.800F20.0
N4140G2X50.748Y56.523I0.000J-0.900F600.0
N4150G2X49.848Y55.623I-0.900J0.000
N4160G2X48.948Y56.523I0.000J0.900
N4170G2X49.848Y57.423I0.900J0.000
N4180G00Z6.000
N4190G01Z-0.900F20.0
N4200G2X50.748Y56.523I0.000J-0.900F600.0
N4210G2X49.848Y55.623I-0.900J0.000
N4220G2X48.948Y56.523I0.000J0.900
N4230G2X49.848Y57.423I0.900J0.000
N4240G00Z6.000
N4250G01Z-1.000F20.0
N4260G2X50.748Y56.523I0.000J-0.900F600.0
N4270G2X49.848Y55.623I-0.900J0.000
N4280G2X48.948Y56.523I0.000J0.900
N4290G2X49.848Y57.423I0.900J0.000
N4300G00Z6.000
N4310G01Z-1.100F20.0
N4320G2X50.748Y56.523I0.000J-0.900F600.0
N4330G2X49.848Y55.623I-0.900J0.000
N4340G2X48.948Y56.523I0.000J0.900
N4350G2X49.848Y57.423I0.900J0.000
N4360G00Z6.000
N4370G01Z-1.200F20.0
N4380G2X50.748Y56.523I0.000J-0.900F600.0
N4390G2X49.848Y55.623I-0.900J0.000
N4400G2X48.948Y56.523I0.000J0.900
N4410G2X49.848Y57.423I0.900J0.000
N4420G00Z6.000
N4430G01Z-1.300F20.0
N4440G2X50.748Y56.523I0.000J-0.900F600.0
N4450G2X49.848Y55.623I-0.900J0.000
N4460G2X48.948Y56.523I0.000J0.900
N4470G2X49.848Y57.423I0.900J0.000
N4480G00Z6.000
N4490G01Z-1.400F20.0
N4500G2X50.748Y56.523I0.000J-0.900F600.0
N4510G2X49.848Y55.623I-0.900J0.000
N4520G2X48.948Y56.523I0.000J0.900
N4530G2X49.848Y57.423I0.900J0.000
N4540G00Z6.000
N4550G01Z-1.500F20.0
N4560G2X50.748Y56.523I0.000J-0.900F600.0
N4570G2X49.848Y55.623I-0.900J0.000
N4580G2X48.948Y56.523I0.000J0.900
N4590G2X49.848Y57.423I0.900J0.000
N4600G00Z6.000
N4610G01Z-1.600F20.0
N4620G2X50.748Y56.523I0.000J-0.900F600.0
N4630G2X49.848Y55.623I-0.900J0.000
N4640G2X48.948Y56.523I0.000J0.900
N4650G2X49.848Y57.423I0.900J0.000
N4660G00Z6.000
N4670G01Z-1.700F20.0
N4680G2X50.748Y56.523I0.000J-0.900F600.0
N4690G2X49.848Y55.623I-0.900J0.000
N4700G2X48.948Y56.523I0.000J0.900
N4710G2X49.848Y57.423I0.900J0.000
N4720G00Z6.000
N4730G01Z-1.800F20.0
N4740G2X50.748Y56.523I0.000J-0.900F600.0
N4750G2X49.848Y55.623I-0.900J0.000
N4760G2X48.948Y56.523I0.000J0.900
N4770G2X49.848Y57.423I0.900J0.000
N4780G00Z6.000
N4790G01Z-1.900F20.0
N4800G2X50.748Y56.523I0.000J-0.900F600.0
N4810G2X49.848Y55.623I-0.900J0.000
N4820G2X48.948Y56.523I0.000J0.900
N4830G2X49.848Y57.423I0.900J0.000
N4840G00Z6.000
N4850G01Z-2.000F20.0
N4860G2X50.748Y56.523I0.000J-0.900F600.0
N4870G2X49.848Y55.623I-0.900J0.000
N4880G2X48.948Y56.523I0.000J0.900
N4890G2X49.848Y57.423I0.900J0.000
N4900G00Z6.000
N4910G01Z-2.100F20.0
N4920G2X50.748Y56.523I0.000J-0.900F600.0
N4930G2X49.848Y55.623I-0.900J0.000
N4940G2X48.948Y56.523I0.000J0.900
N4950G2X49.848Y57.423I0.900J0.000
N4960G00Z6.000
N4970G01Z-2.200F20.0
N4980G2X50.748Y56.523I0.000J-0.900F600.0
N4990G2X49.848Y55.623I-0.900J0.000
N5000G2X48.948Y56.523I0.000J0.900
N5010G2X49.848Y57.423I0.900J0.000
N5020G00Z6.000
N5030G01Z-2.300F20.0
N5040G2X50.748Y56.523I0.000J-0.900F600.0
N5050G2X49.848Y55.623I-0.900J0.000
N5060G2X48.948Y56.523I0.000J0.900
N5070G2X49.848Y57.423I0.900J0.000
N5080G00Z6.000
N5090G01Z-2.400F20.0
N5100G2X50.748Y56.523I0.000J-0.900F600.0
N5110G2X49.848Y55.623I-0.900J0.000
N5120G2X48.948Y56.523I0.000J0.900
N5130G2X49.848Y57.423I0.900J0.000
N5140G00Z6.000
N5150G01Z-2.500F20.0
N5160G2X50.748Y56.523I0.000J-0.900F600.0
N5170G2X49.848Y55.623I-0.900J0.000
N5180G2X48.948Y56.523I0.000J0.900
N5190G2X49.848Y57.423I0.900J0.000
N5200G00Z6.000
N5210G01Z-2.600F20.0
N5220G2X50.748Y56.523I0.000J-0.900F600.0
N5230G2X49.848Y55.623I-0.900J0.000
N5240G2X48.948Y56.523I0.000J0.900
N5250G2X49.848Y57.423I0.900J0.000
N5260G00Z6.000
N5270G01Z-2.700F20.0
N5280G2X50.748Y56.523I0.000J-0.900F600.0
N5290G2X49.848Y55.623I-0.900J0.000
N5300G2X48.948Y56.523I0.000J0.900
N5310G2X49.848Y57.423I0.900J0.000
N5320G00Z6.000
N5330G01Z-2.800F20.0
N5340G2X50.748Y56.523I0.000J-0.900F600.0
N5350G2X49.848Y55.623I-0.900J0.000
N5360G2X48.948Y56.523I0.000J0.900
N5370G2X49.848Y57.423I0.900J0.000
N5380G00Z6.000
N5390G01Z-2.900F20.0
N5400G2X50.748Y56.523I0.000J-0.900F600.0
N5410G2X49.848Y55.623I-0.900J0.000
N5420G2X48.948Y56.523I0.000J0.900
N5430G2X49.848Y57.423I0.900J0.000
N5440G00Z6.000
N5450G01Z-3.000F20.0
N5460G2X50.748Y56.523I0.000J-0.900F600.0
N5470G2X49.848Y55.623I-0.900J0.000
N5480G2X48.948Y56.523I0.000J0.900
N5490G2X49.848Y57.423I0.900J0.000
N5500G00Z6.000
N5510G00X55.348Y62.923
N5520G01Z-0.100F20.0
N5530G2X56.248Y62.023I0.000J-0.900F600.0
N5540G2X55.348Y61.123I-0.900J0.000
N5550G2X54.448Y62.023I0.000J0.900
N5560G2X55.348Y62.923I0.900J0.000
N5570G00Z6.000
N5580G01Z-0.200F20.0
N5590G2X56.248Y62.023I0.000J-0.900F600.0
N5600G2X55.348Y61.123I-0.900J0.000
N5610G2X54.448Y62.023I0.000J0.900
N5620G2X55.348Y62.923I0.900J0.000
N5630G00Z6.000
N5640G01Z-0.300F20.0
N5650G2X56.248Y62.023I0.000J-0.900F600.0
N5660G2X55.348Y61.123I-0.900J0.000
N5670G2X54.448Y62.023I0.000J0.900
N5680G2X55.348Y62.923I0.900J0.000
N5690G00Z6.000
N5700G01Z-0.400F20.0
N5710G2X56.248Y62.023I0.000J-0.900F600.0
N5720G2X55.348Y61.123I-0.900J0.000
N5730G2X54.448Y62.023I0.000J0.900
N5740G2X55.348Y62.923I0.900J0.000
N5750G00Z6.000
N5760G01Z-0.500F20.0
N5770G2X56.248Y62.023I0.000J-0.900F600.0
N5780G2X55.348Y61.123I-0.900J0.000
N5790G2X54.448Y62.023I0.000J0.900
N5800G2X55.348Y62.923I0.900J0.000
N5810G00Z6.000
N5820G01Z-0.600F20.0
N5830G2X56.248Y62.023I0.000J-0.900F600.0
N5840G2X55.348Y61.123I-0.900J0.000
N5850G2X54.448Y62.023I0.000J0.900
N5860G2X55.348Y62.923I0.900J0.000
N5870G00Z6.000
N5880G01Z-0.700F20.0
N5890G2X56.248Y62.023I0.000J-0.900F600.0
N5900G2X55.348Y61.123I-0.900J0.000
N5910G2X54.448Y62.023I0.000J0.900
N5920G2X55.348Y62.923I0.900J0.000
N5930G00Z6.000
N5940G01Z-0.800F20.0
N5950G2X56.248Y62.023I0.000J-0.900F600.0
N5960G2X55.348Y61.123I-0.900J0.000
N5970G2X54.448Y62.023I0.000J0.900
N5980G2X55.348Y62.923I0.900J0.000
N5990G00Z6.000
N6000G01Z-0.900F20.0
N6010G2X56.248Y62.023I0.000J-0.900F600.0
N6020G2X55.348Y61.123I-0.900J0.000
N6030G2X54.448Y62.023I0.000J0.900
N6040G2X55.348Y62.923I0.900J0.000
N6050G00Z6.000
N6060G01Z-1.000F20.0
N6070G2X56.248Y62.023I0.000J-0.900F600.0
N6080G2X55.348Y61.123I-0.900J0.000
N6090G2X54.448Y62.023I0.000J0.900
N6100G2X55.348Y62.923I0.900J0.000
N6110G00Z6.000
N6120G01Z-1.100F20.0
N6130G2X56.248Y62.023I0.000J-0.900F600.0
N6140G2X55.348Y61.123I-0.900J0.000
N6150G2X54.448Y62.023I0.000J0.900
N6160G2X55.348Y62.923I0.900J0.000
N6170G00Z6.000
N6180G01Z-1.200F20.0
N6190G2X56.248Y62.023I0.000J-0.900F600.0
N6200G2X55.348Y61.123I-0.900J0.000
N6210G2X54.448Y62.023I0.000J0.900
N6220G2X55.348Y62.923I0.900J0.000
N6230G00Z6.000
N6240G01Z-1.300F20.0
N6250G2X56.248Y62.023I0.000J-0.900F600.0
N6260G2X55.348Y61.123I-0.900J0.000
N6270G2X54.448Y62.023I0.000J0.900
N6280G2X55.348Y62.923I0.900J0.000
N6290G00Z6.000
N6300G01Z-1.400F20.0
N6310G2X56.248Y62.023I0.000J-0.900F600.0
N6320G2X55.348Y61.123I-0.900J0.000
N6330G2X54.448Y62.023I0.000J0.900
N6340G2X55.348Y62.923I0.900J0.000
N6350G00Z6.000
N6360G01Z-1.500F20.0
N6370G2X56.248Y62.023I0.000J-0.900F600.0
N6380G2X55.348Y61.123I-0.900J0.000
N6390G2X54.448Y62.023I0.000J0.900
N6400G2X55.348Y62.923I0.900J0.000
N6410G00Z6.000
N6420G01Z-1.600F20.0
N6430G2X56.248Y62.023I0.000J-0.900F600.0
N6440G2X55.348Y61.123I-0.900J0.000
N6450G2X54.448Y62.023I0.000J0.900
N6460G2X55.348Y62.923I0.900J0.000
N6470G00Z6.000
N6480G01Z-1.700F20.0
N6490G2X56.248Y62.023I0.000J-0.900F600.0
N6500G2X55.348Y61.123I-0.900J0.000
N6510G2X54.448Y62.023I0.000J0.900
N6520G2X55.348Y62.923I0.900J0.000
N6530G00Z6.000
N6540G01Z-1.800F20.0
N6550G2X56.248Y62.023I0.000J-0.900F600.0
N6560G2X55.348Y61.123I-0.900J0.000
N6570G2X54.448Y62.023I0.000J0.900
N6580G2X55.348Y62.923I0.900J0.000
N6590G00Z6.000
N6600G01Z-1.900F20.0
N6610G2X56.248Y62.023I0.000J-0.900F600.0
N6620G2X55.348Y61.123I-0.900J0.000
N6630G2X54.448Y62.023I0.000J0.900
N6640G2X55.348Y62.923I0.900J0.000
N6650G00Z6.000
N6660G01Z-2.000F20.0
N6670G2X56.248Y62.023I0.000J-0.900F600.0
N6680G2X55.348Y61.123I-0.900J0.000
N6690G2X54.448Y62.023I0.000J0.900
N6700G2X55.348Y62.923I0.900J0.000
N6710G00Z6.000
N6720G01Z-2.100F20.0
N6730G2X56.248Y62.023I0.000J-0.900F600.0
N6740G2X55.348Y61.123I-0.900J0.000
N6750G2X54.448Y62.023I0.000J0.900
N6760G2X55.348Y62.923I0.900J0.000
N6770G00Z6.000
N6780G01Z-2.200F20.0
N6790G2X56.248Y62.023I0.000J-0.900F600.0
N6800G2X55.348Y61.123I-0.900J0.000
N6810G2X54.448Y62.023I0.000J0.900
N6820G2X55.348Y62.923I0.900J0.000
N6830G00Z6.000
N6840G01Z-2.300F20.0
N6850G2X56.248Y62.023I0.000J-0.900F600.0
N6860G2X55.348Y61.123I-0.900J0.000
N6870G2X54.448Y62.023I0.000J0.900
N6880G2X55.348Y62.923I0.900J0.000
N6890G00Z6.000
N6900G01Z-2.400F20.0
N6910G2X56.248Y62.023I0.000J-0.900F600.0
N6920G2X55.348Y61.123I-0.900J0.000
N6930G2X54.448Y62.023I0.000J0.900
N6940G2X55.348Y62.923I0.900J0.000
N6950G00Z6.000
N6960G01Z-2.500F20.0
N6970G2X56.248Y62.023I0.000J-0.900F600.0
N6980G2X55.348Y61.123I-0.900J0.000
N6990G2X54.448Y62.023I0.000J0.900
N7000G2X55.348Y62.923I0.900J0.000
N7010G00Z6.000
N7020G01Z-2.600F20.0
N7030G2X56.248Y62.023I0.000J-0.900F600.0
N7040G2X55.348Y61.123I-0.900J0.000
N7050G2X54.448Y62.023I0.000J0.900
N7060G2X55.348Y62.923I0.900J0.000
N7070G00Z6.000
N7080G01Z-2.700F20.0
N7090G2X56.248Y62.023I0.000J-0.900F600.0
N7100G2X55.348Y61.123I-0.900J0.000
N7110G2X54.448Y62.023I0.000J0.900
N7120G2X55.348Y62.923I0.900J0.000
N7130G00Z6.000
N7140G01Z-2.800F20.0
N7150G2X56.248Y62.023I0.000J-0.900F600.0
N7160G2X55.348Y61.123I-0.900J0.000
N7170G2X54.448Y62.023I0.000J0.900
N7180G2X55.348Y62.923I0.900J0.000
N7190G00Z6.000
N7200G01Z-2.900F20.0
N7210G2X56.248Y62.023I0.000J-0.900F600.0
N7220G2X55.348Y61.123I-0.900J0.000
N7230G2X54.448Y62.023I0.000J0.900
N7240G2X55.348Y62.923I0.900J0.000
N7250G00Z6.000
N7260G01Z-3.000F20.0
N7270G2X56.248Y62.023I0.000J-0.900F600.0
N7280G2X55.348Y61.123I-0.900J0.000
N7290G2X54.448Y62.023I0.000J0.900
N7300G2X55.348Y62.923I0.900J0.000
N7310G00Z6.000
N7320G00Y78.923
N7330G01Z-0.100F20.0
N7340G2X56.248Y78.023I0.000J-0.900F600.0
N7350G2X55.348Y77.123I-0.900J0.000
N7360G2X54.448Y78.023I0.000J0.900
N7370G2X55.348Y78.923I0.900J0.000
N7380G00Z6.000
N7390G01Z-0.200F20.0
N7400G2X56.248Y78.023I0.000J-0.900F600.0
N7410G2X55.348Y77.123I-0.900J0.000
N7420G2X54.448Y78.023I0.000J0.900
N7430G2X55.348Y78.923I0.900J0.000
N7440G00Z6.000
N7450G01Z-0.300F20.0
N7460G2X56.248Y78.023I0.000J-0.900F600.0
N7470G2X55.348Y77.123I-0.900J0.000
N7480G2X54.448Y78.023I0.000J0.900
N7490G2X55.348Y78.923I0.900J0.000
N7500G00Z6.000
N7510G01Z-0.400F20.0
N7520G2X56.248Y78.023I0.000J-0.900F600.0
N7530G2X55.348Y77.123I-0.900J0.000
N7540G2X54.448Y78.023I0.000J0.900
N7550G2X55.348Y78.923I0.900J0.000
N7560G00Z6.000
N7570G01Z-0.500F20.0
N7580G2X56.248Y78.023I0.000J-0.900F600.0
N7590G2X55.348Y77.123I-0.900J0.000
N7600G2X54.448Y78.023I0.000J0.900
N7610G2X55.348Y78.923I0.900J0.000
N7620G00Z6.000
N7630G01Z-0.600F20.0
N7640G2X56.248Y78.023I0.000J-0.900F600.0
N7650G2X55.348Y77.123I-0.900J0.000
N7660G2X54.448Y78.023I0.000J0.900
N7670G2X55.348Y78.923I0.900J0.000
N7680G00Z6.000
N7690G01Z-0.700F20.0
N7700G2X56.248Y78.023I0.000J-0.900F600.0
N7710G2X55.348Y77.123I-0.900J0.000
N7720G2X54.448Y78.023I0.000J0.900
N7730G2X55.348Y78.923I0.900J0.000
N7740G00Z6.000
N7750G01Z-0.800F20.0
N7760G2X56.248Y78.023I0.000J-0.900F600.0
N7770G2X55.348Y77.123I-0.900J0.000
N7780G2X54.448Y78.023I0.000J0.900
N7790G2X55.348Y78.923I0.900J0.000
N7800G00Z6.000
N7810G01Z-0.900F20.0
N7820G2X56.248Y78.023I0.000J-0.900F600.0
N7830G2X55.348Y77.123I-0.900J0.000
N7840G2X54.448Y78.023I0.000J0.900
N7850G2X55.348Y78.923I0.900J0.000
N7860G00Z6.000
N7870G01Z-1.000F20.0
N7880G2X56.248Y78.023I0.000J-0.900F600.0
N7890G2X55.348Y77.123I-0.900J0.000
N7900G2X54.448Y78.023I0.000J0.900
N7910G2X55.348Y78.923I0.900J0.000
N7920G00Z6.000
N7930G01Z-1.100F20.0
N7940G2X56.248Y78.023I0.000J-0.900F600.0
N7950G2X55.348Y77.123I-0.900J0.000
N7960G2X54.448Y78.023I0.000J0.900
N7970G2X55.348Y78.923I0.900J0.000
N7980G00Z6.000
N7990G01Z-1.200F20.0
N8000G2X56.248Y78.023I0.000J-0.900F600.0
N8010G2X55.348Y77.123I-0.900J0.000
N8020G2X54.448Y78.023I0.000J0.900
N8030G2X55.348Y78.923I0.900J0.000
N8040G00Z6.000
N8050G01Z-1.300F20.0
N8060G2X56.248Y78.023I0.000J-0.900F600.0
N8070G2X55.348Y77.123I-0.900J0.000
N8080G2X54.448Y78.023I0.000J0.900
N8090G2X55.348Y78.923I0.900J0.000
N8100G00Z6.000
N8110G01Z-1.400F20.0
N8120G2X56.248Y78.023I0.000J-0.900F600.0
N8130G2X55.348Y77.123I-0.900J0.000
N8140G2X54.448Y78.023I0.000J0.900
N8150G2X55.348Y78.923I0.900J0.000
N8160G00Z6.000
N8170G01Z-1.500F20.0
N8180G2X56.248Y78.023I0.000J-0.900F600.0
N8190G2X55.348Y77.123I-0.900J0.000
N8200G2X54.448Y78.023I0.000J0.900
N8210G2X55.348Y78.923I0.900J0.000
N8220G00Z6.000
N8230G01Z-1.600F20.0
N8240G2X56.248Y78.023I0.000J-0.900F600.0
N8250G2X55.348Y77.123I-0.900J0.000
N8260G2X54.448Y78.023I0.000J0.900
N8270G2X55.348Y78.923I0.900J0.000
N8280G00Z6.000
N8290G01Z-1.700F20.0
N8300G2X56.248Y78.023I0.000J-0.900F600.0
N8310G2X55.348Y77.123I-0.900J0.000
N8320G2X54.448Y78.023I0.000J0.900
N8330G2X55.348Y78.923I0.900J0.000
N8340G00Z6.000
N8350G01Z-1.800F20.0
N8360G2X56.248Y78.023I0.000J-0.900F600.0
N8370G2X55.348Y77.123I-0.900J0.000
N8380G2X54.448Y78.023I0.000J0.900
N8390G2X55.348Y78.923I0.900J0.000
N8400G00Z6.000
N8410G01Z-1.900F20.0
N8420G2X56.248Y78.023I0.000J-0.900F600.0
N8430G2X55.348Y77.123I-0.900J0.000
N8440G2X54.448Y78.023I0.000J0.900
N8450G2X55.348Y78.923I0.900J0.000
N8460G00Z6.000
N8470G01Z-2.000F20.0
N8480G2X56.248Y78.023I0.000J-0.900F600.0
N8490G2X55.348Y77.123I-0.900J0.000
N8500G2X54.448Y78.023I0.000J0.900
N8510G2X55.348Y78.923I0.900J0.000
N8520G00Z6.000
N8530G01Z-2.100F20.0
N8540G2X56.248Y78.023I0.000J-0.900F600.0
N8550G2X55.348Y77.123I-0.900J0.000
N8560G2X54.448Y78.023I0.000J0.900
N8570G2X55.348Y78.923I0.900J0.000
N8580G00Z6.000
N8590G01Z-2.200F20.0
N8600G2X56.248Y78.023I0.000J-0.900F600.0
N8610G2X55.348Y77.123I-0.900J0.000
N8620G2X54.448Y78.023I0.000J0.900
N8630G2X55.348Y78.923I0.900J0.000
N8640G00Z6.000
N8650G01Z-2.300F20.0
N8660G2X56.248Y78.023I0.000J-0.900F600.0
N8670G2X55.348Y77.123I-0.900J0.000
N8680G2X54.448Y78.023I0.000J0.900
N8690G2X55.348Y78.923I0.900J0.000
N8700G00Z6.000
N8710G01Z-2.400F20.0
N8720G2X56.248Y78.023I0.000J-0.900F600.0
N8730G2X55.348Y77.123I-0.900J0.000
N8740G2X54.448Y78.023I0.000J0.900
N8750G2X55.348Y78.923I0.900J0.000
N8760G00Z6.000
N8770G01Z-2.500F20.0
N8780G2X56.248Y78.023I0.000J-0.900F600.0
N8790G2X55.348Y77.123I-0.900J0.000
N8800G2X54.448Y78.023I0.000J0.900
N8810G2X55.348Y78.923I0.900J0.000
N8820G00Z6.000
N8830G01Z-2.600F20.0
N8840G2X56.248Y78.023I0.000J-0.900F600.0
N8850G2X55.348Y77.123I-0.900J0.000
N8860G2X54.448Y78.023I0.000J0.900
N8870G2X55.348Y78.923I0.900J0.000
N8880G00Z6.000
N8890G01Z-2.700F20.0
N8900G2X56.248Y78.023I0.000J-0.900F600.0
N8910G2X55.348Y77.123I-0.900J0.000
N8920G2X54.448Y78.023I0.000J0.900
N8930G2X55.348Y78.923I0.900J0.000
N8940G00Z6.000
N8950G01Z-2.800F20.0
N8960G2X56.248Y78.023I0.000J-0.900F600.0
N8970G2X55.348Y77.123I-0.900J0.000
N8980G2X54.448Y78.023I0.000J0.900
N8990G2X55.348Y78.923I0.900J0.000
N9000G00Z6.000
N9010G01Z-2.900F20.0
N9020G2X56.248Y78.023I0.000J-0.900F600.0
N9030G2X55.348Y77.123I-0.900J0.000
N9040G2X54.448Y78.023I0.000J0.900
N9050G2X55.348Y78.923I0.900J0.000
N9060G00Z6.000
N9070G01Z-3.000F20.0
N9080G2X56.248Y78.023I0.000J-0.900F600.0
N9090G2X55.348Y77.123I-0.900J0.000
N9100G2X54.448Y78.023I0.000J0.900
N9110G2X55.348Y78.923I0.900J0.000
N9120G00Z6.000
N9130G00X49.848Y84.423
N9140G01Z-0.100F20.0
N9150G2X50.748Y83.523I0.000J-0.900F600.0
N9160G2X49.848Y82.623I-0.900J0.000
N9170G2X48.948Y83.523I0.000J0.900
N9180G2X49.848Y84.423I0.900J0.000
N9190G00Z6.000
N9200G01Z-0.200F20.0
N9210G2X50.748Y83.523I0.000J-0.900F600.0
N9220G2X49.848Y82.623I-0.900J0.000
N9230G2X48.948Y83.523I0.000J0.900
N9240G2X49.848Y84.423I0.900J0.000
N9250G00Z6.000
N9260G01Z-0.300F20.0
N9270G2X50.748Y83.523I0.000J-0.900F600.0
N9280G2X49.848Y82.623I-0.900J0.000
N9290G2X48.948Y83.523I0.000J0.900
N9300G2X49.848Y84.423I0.900J0.000
N9310G00Z6.000
N9320G01Z-0.400F20.0
N9330G2X50.748Y83.523I0.000J-0.900F600.0
N9340G2X49.848Y82.623I-0.900J0.000
N9350G2X48.948Y83.523I0.000J0.900
N9360G2X49.848Y84.423I0.900J0.000
N9370G00Z6.000
N9380G01Z-0.500F20.0
N9390G2X50.748Y83.523I0.000J-0.900F600.0
N9400G2X49.848Y82.623I-0.900J0.000
N9410G2X48.948Y83.523I0.000J0.900
N9420G2X49.848Y84.423I0.900J0.000
N9430G00Z6.000
N9440G01Z-0.600F20.0
N9450G2X50.748Y83.523I0.000J-0.900F600.0
N9460G2X49.848Y82.623I-0.900J0.000
N9470G2X48.948Y83.523I0.000J0.900
N9480G2X49.848Y84.423I0.900J0.000
N9490G00Z6.000
N9500G01Z-0.700F20.0
N9510G2X50.748Y83.523I0.000J-0.900F600.0
N9520G2X49.848Y82.623I-0.900J0.000
N9530G2X48.948Y83.523I0.000J0.900
N9540G2X49.848Y84.423I0.900J0.000
N9550G00Z6.000
N9560G01Z-0.800F20.0
N9570G2X50.748Y83.523I0.000J-0.900F600.0
N9580G2X49.848Y82.623I-0.900J0.000
N9590G2X48.948Y83.523I0.000J0.900
N9600G2X49.848Y84.423I0.900J0.000
N9610G00Z6.000
N9620G01Z-0.900F20.0
N9630G2X50.748Y83.523I0.000J-0.900F600.0
N9640G2X49.848Y82.623I-0.900J0.000
N9650G2X48.948Y83.523I0.000J0.900
N9660G2X49.848Y84.423I0.900J0.000
N9670G00Z6.000
N9680G01Z-1.000F20.0
N9690G2X50.748Y83.523I0.000J-0.900F600.0
N9700G2X49.848Y82.623I-0.900J0.000
N9710G2X48.948Y83.523I0.000J0.900
N9720G2X49.848Y84.423I0.900J0.000
N9730G00Z6.000
N9740G01Z-1.100F20.0
N9750G2X50.748Y83.523I0.000J-0.900F600.0
N9760G2X49.848Y82.623I-0.900J0.000
N9770G2X48.948Y83.523I0.000J0.900
N9780G2X49.848Y84.423I0.900J0.000
N9790G00Z6.000
N9800G01Z-1.200F20.0
N9810G2X50.748Y83.523I0.000J-0.900F600.0
N9820G2X49.848Y82.623I-0.900J0.000
N9830G2X48.948Y83.523I0.000J0.900
N9840G2X49.848Y84.423I0.900J0.000
N9850G00Z6.000
N9860G01Z-1.300F20.0
N9870G2X50.748Y83.523I0.000J-0.900F600.0
N9880G2X49.848Y82.623I-0.900J0.000
N9890G2X48.948Y83.523I0.000J0.900
N9900G2X49.848Y84.423I0.900J0.000
N9910G00Z6.000
N9920G01Z-1.400F20.0
N9930G2X50.748Y83.523I0.000J-0.900F600.0
N9940G2X49.848Y82.623I-0.900J0.000
N9950G2X48.948Y83.523I0.000J0.900
N9960G2X49.848Y84.423I0.900J0.000
N9970G00Z6.000
N9980G01Z-1.500F20.0
N9990G2X50.748Y83.523I0.000J-0.900F600.0
N10000G2X49.848Y82.623I-0.900J0.000
N10010G2X48.948Y83.523I0.000J0.900
N10020G2X49.848Y84.423I0.900J0.000
N10030G00Z6.000
N10040G01Z-1.600F20.0
N10050G2X50.748Y83.523I0.000J-0.900F600.0
N10060G2X49.848Y82.623I-0.900J0.000
N10070G2X48.948Y83.523I0.000J0.900
N10080G2X49.848Y84.423I0.900J0.000
N10090G00Z6.000
N10100G01Z-1.700F20.0
N10110G2X50.748Y83.523I0.000J-0.900F600.0
N10120G2X49.848Y82.623I-0.900J0.000
N10130G2X48.948Y83.523I0.000J0.900
N10140G2X49.848Y84.423I0.900J0.000
N10150G00Z6.000
N10160G01Z-1.800F20.0
N10170G2X50.748Y83.523I0.000J-0.900F600.0
N10180G2X49.848Y82.623I-0.900J0.000
N10190G2X48.948Y83.523I0.000J0.900
N10200G2X49.848Y84.423I0.900J0.000
N10210G00Z6.000
N10220G01Z-1.900F20.0
N10230G2X50.748Y83.523I0.000J-0.900F600.0
N10240G2X49.848Y82.623I-0.900J0.000
N10250G2X48.948Y83.523I0.000J0.900
N10260G2X49.848Y84.423I0.900J0.000
N10270G00Z6.000
N10280G01Z-2.000F20.0
N10290G2X50.748Y83.523I0.000J-0.900F600.0
N10300G2X49.848Y82.623I-0.900J0.000
N10310G2X48.948Y83.523I0.000J0.900
N10320G2X49.848Y84.423I0.900J0.000
N10330G00Z6.000
N10340G01Z-2.100F20.0
N10350G2X50.748Y83.523I0.000J-0.900F600.0
N10360G2X49.848Y82.623I-0.900J0.000
N10370G2X48.948Y83.523I0.000J0.900
N10380G2X49.848Y84.423I0.900J0.000
N10390G00Z6.000
N10400G01Z-2.200F20.0
N10410G2X50.748Y83.523I0.000J-0.900F600.0
N10420G2X49.848Y82.623I-0.900J0.000
N10430G2X48.948Y83.523I0.000J0.900
N10440G2X49.848Y84.423I0.900J0.000
N10450G00Z6.000
N10460G01Z-2.300F20.0
N10470G2X50.748Y83.523I0.000J-0.900F600.0
N10480G2X49.848Y82.623I-0.900J0.000
N10490G2X48.948Y83.523I0.000J0.900
N10500G2X49.848Y84.423I0.900J0.000
N10510G00Z6.000
N10520G01Z-2.400F20.0
N10530G2X50.748Y83.523I0.000J-0.900F600.0
N10540G2X49.848Y82.623I-0.900J0.000
N10550G2X48.948Y83.523I0.000J0.900
N10560G2X49.848Y84.423I0.900J0.000
N10570G00Z6.000
N10580G01Z-2.500F20.0
N10590G2X50.748Y83.523I0.000J-0.900F600.0
N10600G2X49.848Y82.623I-0.900J0.000
N10610G2X48.948Y83.523I0.000J0.900
N10620G2X49.848Y84.423I0.900J0.000
N10630G00Z6.000
N10640G01Z-2.600F20.0
N10650G2X50.748Y83.523I0.000J-0.900F600.0
N10660G2X49.848Y82.623I-0.900J0.000
N10670G2X48.948Y83.523I0.000J0.900
N10680G2X49.848Y84.423I0.900J0.000
N10690G00Z6.000
N10700G01Z-2.700F20.0
N10710G2X50.748Y83.523I0.000J-0.900F600.0
N10720G2X49.848Y82.623I-0.900J0.000
N10730G2X48.948Y83.523I0.000J0.900
N10740G2X49.848Y84.423I0.900J0.000
N10750G00Z6.000
N10760G01Z-2.800F20.0
N10770G2X50.748Y83.523I0.000J-0.900F600.0
N10780G2X49.848Y82.623I-0.900J0.000
N10790G2X48.948Y83.523I0.000J0.900
N10800G2X49.848Y84.423I0.900J0.000
N10810G00Z6.000
N10820G01Z-2.900F20.0
N10830G2X50.748Y83.523I0.000J-0.900F600.0
N10840G2X49.848Y82.623I-0.900J0.000
N10850G2X48.948Y83.523I0.000J0.900
N10860G2X49.848Y84.423I0.900J0.000
N10870G00Z6.000
N10880G01Z-3.000F20.0
N10890G2X50.748Y83.523I0.000J-0.900F600.0
N10900G2X49.848Y82.623I-0.900J0.000
N10910G2X48.948Y83.523I0.000J0.900
N10920G2X49.848Y84.423I0.900J0.000
N10930G00Z6.000
N10940G00X41.848
N10950G01Z-0.100F20.0
N10960G2X42.748Y83.523I0.000J-0.900F600.0
N10970G2X41.848Y82.623I-0.900J0.000
N10980G2X40.948Y83.523I0.000J0.900
N10990G2X41.848Y84.423I0.900J0.000
N11000G00Z6.000
N11010G01Z-0.200F20.0
N11020G2X42.748Y83.523I0.000J-0.900F600.0
N11030G2X41.848Y82.623I-0.900J0.000
N11040G2X40.948Y83.523I0.000J0.900
N11050G2X41.848Y84.423I0.900J0.000
N11060G00Z6.000
N11070G01Z-0.300F20.0
N11080G2X42.748Y83.523I0.000J-0.900F600.0
N11090G2X41.848Y82.623I-0.900J0.000
N11100G2X40.948Y83.523I0.000J0.900
N11110G2X41.848Y84.423I0.900J0.000
N11120G00Z6.000
N11130G01Z-0.400F20.0
N11140G2X42.748Y83.523I0.000J-0.900F600.0
N11150G2X41.848Y82.623I-0.900J0.000
N11160G2X40.948Y83.523I0.000J0.900
N11170G2X41.848Y84.423I0.900J0.000
N11180G00Z6.000
N11190G01Z-0.500F20.0
N11200G2X42.748Y83.523I0.000J-0.900F600.0
N11210G2X41.848Y82.623I-0.900J0.000
N11220G2X40.948Y83.523I0.000J0.900
N11230G2X41.848Y84.423I0.900J0.000
N11240G00Z6.000
N11250G01Z-0.600F20.0
N11260G2X42.748Y83.523I0.000J-0.900F600.0
N11270G2X41.848Y82.623I-0.900J0.000
N11280G2X40.948Y83.523I0.000J0.900
N11290G2X41.848Y84.423I0.900J0.000
N11300G00Z6.000
N11310G01Z-0.700F20.0
N11320G2X42.748Y83.523I0.000J-0.900F600.0
N11330G2X41.848Y82.623I-0.900J0.000
N11340G2X40.948Y83.523I0.000J0.900
N11350G2X41.848Y84.423I0.900J0.000
N11360G00Z6.000
N11370G01Z-0.800F20.0
N11380G2X42.748Y83.523I0.000J-0.900F600.0
N11390G2X41.848Y82.623I-0.900J0.000
N11400G2X40.948Y83.523I0.000J0.900
N11410G2X41.848Y84.423I0.900J0.000
N11420G00Z6.000
N11430G01Z-0.900F20.0
N11440G2X42.748Y83.523I0.000J-0.900F600.0
N11450G2X41.848Y82.623I-0.900J0.000
N11460G2X40.948Y83.523I0.000J0.900
N11470G2X41.848Y84.423I0.900J0.000
N11480G00Z6.000
N11490G01Z-1.000F20.0
N11500G2X42.748Y83.523I0.000J-0.900F600.0
N11510G2X41.848Y82.623I-0.900J0.000
N11520G2X40.948Y83.523I0.000J0.900
N11530G2X41.848Y84.423I0.900J0.000
N11540G00Z6.000
N11550G01Z-1.100F20.0
N11560G2X42.748Y83.523I0.000J-0.900F600.0
N11570G2X41.848Y82.623I-0.900J0.000
N11580G2X40.948Y83.523I0.000J0.900
N11590G2X41.848Y84.423I0.900J0.000
N11600G00Z6.000
N11610G01Z-1.200F20.0
N11620G2X42.748Y83.523I0.000J-0.900F600.0
N11630G2X41.848Y82.623I-0.900J0.000
N11640G2X40.948Y83.523I0.000J0.900
N11650G2X41.848Y84.423I0.900J0.000
N11660G00Z6.000
N11670G01Z-1.300F20.0
N11680G2X42.748Y83.523I0.000J-0.900F600.0
N11690G2X41.848Y82.623I-0.900J0.000
N11700G2X40.948Y83.523I0.000J0.900
N11710G2X41.848Y84.423I0.900J0.000
N11720G00Z6.000
N11730G01Z-1.400F20.0
N11740G2X42.748Y83.523I0.000J-0.900F600.0
N11750G2X41.848Y82.623I-0.900J0.000
N11760G2X40.948Y83.523I0.000J0.900
N11770G2X41.848Y84.423I0.900J0.000
N11780G00Z6.000
N11790G01Z-1.500F20.0
N11800G2X42.748Y83.523I0.000J-0.900F600.0
N11810G2X41.848Y82.623I-0.900J0.000
N11820G2X40.948Y83.523I0.000J0.900
N11830G2X41.848Y84.423I0.900J0.000
N11840G00Z6.000
N11850G01Z-1.600F20.0
N11860G2X42.748Y83.523I0.000J-0.900F600.0
N11870G2X41.848Y82.623I-0.900J0.000
N11880G2X40.948Y83.523I0.000J0.900
N11890G2X41.848Y84.423I0.900J0.000
N11900G00Z6.000
N11910G01Z-1.700F20.0
N11920G2X42.748Y83.523I0.000J-0.900F600.0
N11930G2X41.848Y82.623I-0.900J0.000
N11940G2X40.948Y83.523I0.000J0.900
N11950G2X41.848Y84.423I0.900J0.000
N11960G00Z6.000
N11970G01Z-1.800F20.0
N11980G2X42.748Y83.523I0.000J-0.900F600.0
N11990G2X41.848Y82.623I-0.900J0.000
N12000G2X40.948Y83.523I0.000J0.900
N12010G2X41.848Y84.423I0.900J0.000
N12020G00Z6.000
N12030G01Z-1.900F20.0
N12040G2X42.748Y83.523I0.000J-0.900F600.0
N12050G2X41.848Y82.623I-0.900J0.000
N12060G2X40.948Y83.523I0.000J0.900
N12070G2X41.848Y84.423I0.900J0.000
N12080G00Z6.000
N12090G01Z-2.000F20.0
N12100G2X42.748Y83.523I0.000J-0.900F600.0
N12110G2X41.848Y82.623I-0.900J0.000
N12120G2X40.948Y83.523I0.000J0.900
N12130G2X41.848Y84.423I0.900J0.000
N12140G00Z6.000
N12150G01Z-2.100F20.0
N12160G2X42.748Y83.523I0.000J-0.900F600.0
N12170G2X41.848Y82.623I-0.900J0.000
N12180G2X40.948Y83.523I0.000J0.900
N12190G2X41.848Y84.423I0.900J0.000
N12200G00Z6.000
N12210G01Z-2.200F20.0
N12220G2X42.748Y83.523I0.000J-0.900F600.0
N12230G2X41.848Y82.623I-0.900J0.000
N12240G2X40.948Y83.523I0.000J0.900
N12250G2X41.848Y84.423I0.900J0.000
N12260G00Z6.000
N12270G01Z-2.300F20.0
N12280G2X42.748Y83.523I0.000J-0.900F600.0
N12290G2X41.848Y82.623I-0.900J0.000
N12300G2X40.948Y83.523I0.000J0.900
N12310G2X41.848Y84.423I0.900J0.000
N12320G00Z6.000
N12330G01Z-2.400F20.0
N12340G2X42.748Y83.523I0.000J-0.900F600.0
N12350G2X41.848Y82.623I-0.900J0.000
N12360G2X40.948Y83.523I0.000J0.900
N12370G2X41.848Y84.423I0.900J0.000
N12380G00Z6.000
N12390G01Z-2.500F20.0
N12400G2X42.748Y83.523I0.000J-0.900F600.0
N12410G2X41.848Y82.623I-0.900J0.000
N12420G2X40.948Y83.523I0.000J0.900
N12430G2X41.848Y84.423I0.900J0.000
N12440G00Z6.000
N12450G01Z-2.600F20.0
N12460G2X42.748Y83.523I0.000J-0.900F600.0
N12470G2X41.848Y82.623I-0.900J0.000
N12480G2X40.948Y83.523I0.000J0.900
N12490G2X41.848Y84.423I0.900J0.000
N12500G00Z6.000
N12510G01Z-2.700F20.0
N12520G2X42.748Y83.523I0.000J-0.900F600.0
N12530G2X41.848Y82.623I-0.900J0.000
N12540G2X40.948Y83.523I0.000J0.900
N12550G2X41.848Y84.423I0.900J0.000
N12560G00Z6.000
N12570G01Z-2.800F20.0
N12580G2X42.748Y83.523I0.000J-0.900F600.0
N12590G2X41.848Y82.623I-0.900J0.000
N12600G2X40.948Y83.523I0.000J0.900
N12610G2X41.848Y84.423I0.900J0.000
N12620G00Z6.000
N12630G01Z-2.900F20.0
N12640G2X42.748Y83.523I0.000J-0.900F600.0
N12650G2X41.848Y82.623I-0.900J0.000
N12660G2X40.948Y83.523I0.000J0.900
N12670G2X41.848Y84.423I0.900J0.000
N12680G00Z6.000
N12690G01Z-3.000F20.0
N12700G2X42.748Y83.523I0.000J-0.900F600.0
N12710G2X41.848Y82.623I-0.900J0.000
N12720G2X40.948Y83.523I0.000J0.900
N12730G2X41.848Y84.423I0.900J0.000
N12740G00Z6.000
N12750G00X33.848
N12760G01Z-0.100F20.0
N12770G2X34.748Y83.523I0.000J-0.900F600.0
N12780G2X33.848Y82.623I-0.900J0.000
N12790G2X32.948Y83.523I0.000J0.900
N12800G2X33.848Y84.423I0.900J0.000
N12810G00Z6.000
N12820G01Z-0.200F20.0
N12830G2X34.748Y83.523I0.000J-0.900F600.0
N12840G2X33.848Y82.623I-0.900J0.000
N12850G2X32.948Y83.523I0.000J0.900
N12860G2X33.848Y84.423I0.900J0.000
N12870G00Z6.000
N12880G01Z-0.300F20.0
N12890G2X34.748Y83.523I0.000J-0.900F600.0
N12900G2X33.848Y82.623I-0.900J0.000
N12910G2X32.948Y83.523I0.000J0.900
N12920G2X33.848Y84.423I0.900J0.000
N12930G00Z6.000
N12940G01Z-0.400F20.0
N12950G2X34.748Y83.523I0.000J-0.900F600.0
N12960G2X33.848Y82.623I-0.900J0.000
N12970G2X32.948Y83.523I0.000J0.900
N12980G2X33.848Y84.423I0.900J0.000
N12990G00Z6.000
N13000G01Z-0.500F20.0
N13010G2X34.748Y83.523I0.000J-0.900F600.0
N13020G2X33.848Y82.623I-0.900J0.000
N13030G2X32.948Y83.523I0.000J0.900
N13040G2X33.848Y84.423I0.900J0.000
N13050G00Z6.000
N13060G01Z-0.600F20.0
N13070G2X34.748Y83.523I0.000J-0.900F600.0
N13080G2X33.848Y82.623I-0.900J0.000
N13090G2X32.948Y83.523I0.000J0.900
N13100G2X33.848Y84.423I0.900J0.000
N13110G00Z6.000
N13120G01Z-0.700F20.0
N13130G2X34.748Y83.523I0.000J-0.900F600.0
N13140G2X33.848Y82.623I-0.900J0.000
N13150G2X32.948Y83.523I0.000J0.900
N13160G2X33.848Y84.423I0.900J0.000
N13170G00Z6.000
N13180G01Z-0.800F20.0
N13190G2X34.748Y83.523I0.000J-0.900F600.0
N13200G2X33.848Y82.623I-0.900J0.000
N13210G2X32.948Y83.523I0.000J0.900
N13220G2X33.848Y84.423I0.900J0.000
N13230G00Z6.000
N13240G01Z-0.900F20.0
N13250G2X34.748Y83.523I0.000J-0.900F600.0
N13260G2X33.848Y82.623I-0.900J0.000
N13270G2X32.948Y83.523I0.000J0.900
N13280G2X33.848Y84.423I0.900J0.000
N13290G00Z6.000
N13300G01Z-1.000F20.0
N13310G2X34.748Y83.523I0.000J-0.900F600.0
N13320G2X33.848Y82.623I-0.900J0.000
N13330G2X32.948Y83.523I0.000J0.900
N13340G2X33.848Y84.423I0.900J0.000
N13350G00Z6.000
N13360G01Z-1.100F20.0
N13370G2X34.748Y83.523I0.000J-0.900F600.0
N13380G2X33.848Y82.623I-0.900J0.000
N13390G2X32.948Y83.523I0.000J0.900
N13400G2X33.848Y84.423I0.900J0.000
N13410G00Z6.000
N13420G01Z-1.200F20.0
N13430G2X34.748Y83.523I0.000J-0.900F600.0
N13440G2X33.848Y82.623I-0.900J0.000
N13450G2X32.948Y83.523I0.000J0.900
N13460G2X33.848Y84.423I0.900J0.000
N13470G00Z6.000
N13480G01Z-1.300F20.0
N13490G2X34.748Y83.523I0.000J-0.900F600.0
N13500G2X33.848Y82.623I-0.900J0.000
N13510G2X32.948Y83.523I0.000J0.900
N13520G2X33.848Y84.423I0.900J0.000
N13530G00Z6.000
N13540G01Z-1.400F20.0
N13550G2X34.748Y83.523I0.000J-0.900F600.0
N13560G2X33.848Y82.623I-0.900J0.000
N13570G2X32.948Y83.523I0.000J0.900
N13580G2X33.848Y84.423I0.900J0.000
N13590G00Z6.000
N13600G01Z-1.500F20.0
N13610G2X34.748Y83.523I0.000J-0.900F600.0
N13620G2X33.848Y82.623I-0.900J0.000
N13630G2X32.948Y83.523I0.000J0.900
N13640G2X33.848Y84.423I0.900J0.000
N13650G00Z6.000
N13660G01Z-1.600F20.0
N13670G2X34.748Y83.523I0.000J-0.900F600.0
N13680G2X33.848Y82.623I-0.900J0.000
N13690G2X32.948Y83.523I0.000J0.900
N13700G2X33.848Y84.423I0.900J0.000
N13710G00Z6.000
N13720G01Z-1.700F20.0
N13730G2X34.748Y83.523I0.000J-0.900F600.0
N13740G2X33.848Y82.623I-0.900J0.000
N13750G2X32.948Y83.523I0.000J0.900
N13760G2X33.848Y84.423I0.900J0.000
N13770G00Z6.000
N13780G01Z-1.800F20.0
N13790G2X34.748Y83.523I0.000J-0.900F600.0
N13800G2X33.848Y82.623I-0.900J0.000
N13810G2X32.948Y83.523I0.000J0.900
N13820G2X33.848Y84.423I0.900J0.000
N13830G00Z6.000
N13840G01Z-1.900F20.0
N13850G2X34.748Y83.523I0.000J-0.900F600.0
N13860G2X33.848Y82.623I-0.900J0.000
N13870G2X32.948Y83.523I0.000J0.900
N13880G2X33.848Y84.423I0.900J0.000
N13890G00Z6.000
N13900G01Z-2.000F20.0
N13910G2X34.748Y83.523I0.000J-0.900F600.0
N13920G2X33.848Y82.623I-0.900J0.000
N13930G2X32.948Y83.523I0.000J0.900
N13940G2X33.848Y84.423I0.900J0.000
N13950G00Z6.000
N13960G01Z-2.100F20.0
N13970G2X34.748Y83.523I0.000J-0.900F600.0
N13980G2X33.848Y82.623I-0.900J0.000
N13990G2X32.948Y83.523I0.000J0.900
N14000G2X33.848Y84.423I0.900J0.000
N14010G00Z6.000
N14020G01Z-2.200F20.0
N14030G2X34.748Y83.523I0.000J-0.900F600.0
N14040G2X33.848Y82.623I-0.900J0.000
N14050G2X32.948Y83.523I0.000J0.900
N14060G2X33.848Y84.423I0.900J0.000
N14070G00Z6.000
N14080G01Z-2.300F20.0
N14090G2X34.748Y83.523I0.000J-0.900F600.0
N14100G2X33.848Y82.623I-0.900J0.000
N14110G2X32.948Y83.523I0.000J0.900
N14120G2X33.848Y84.423I0.900J0.000
N14130G00Z6.000
N14140G01Z-2.400F20.0
N14150G2X34.748Y83.523I0.000J-0.900F600.0
N14160G2X33.848Y82.623I-0.900J0.000
N14170G2X32.948Y83.523I0.000J0.900
N14180G2X33.848Y84.423I0.900J0.000
N14190G00Z6.000
N14200G01Z-2.500F20.0
N14210G2X34.748Y83.523I0.000J-0.900F600.0
N14220G2X33.848Y82.623I-0.900J0.000
N14230G2X32.948Y83.523I0.000J0.900
N14240G2X33.848Y84.423I0.900J0.000
N14250G00Z6.000
N14260G01Z-2.600F20.0
N14270G2X34.748Y83.523I0.000J-0.900F600.0
N14280G2X33.848Y82.623I-0.900J0.000
N14290G2X32.948Y83.523I0.000J0.900
N14300G2X33.848Y84.423I0.900J0.000
N14310G00Z6.000
N14320G01Z-2.700F20.0
N14330G2X34.748Y83.523I0.000J-0.900F600.0
N14340G2X33.848Y82.623I-0.900J0.000
N14350G2X32.948Y83.523I0.000J0.900
N14360G2X33.848Y84.423I0.900J0.000
N14370G00Z6.000
N14380G01Z-2.800F20.0
N14390G2X34.748Y83.523I0.000J-0.900F600.0
N14400G2X33.848Y82.623I-0.900J0.000
N14410G2X32.948Y83.523I0.000J0.900
N14420G2X33.848Y84.423I0.900J0.000
N14430G00Z6.000
N14440G01Z-2.900F20.0
N14450G2X34.748Y83.523I0.000J-0.900F600.0
N14460G2X33.848Y82.623I-0.900J0.000
N14470G2X32.948Y83.523I0.000J0.900
N14480G2X33.848Y84.423I0.900J0.000
N14490G00Z6.000
N14500G01Z-3.000F20.0
N14510G2X34.748Y83.523I0.000J-0.900F600.0
N14520G2X33.848Y82.623I-0.900J0.000
N14530G2X32.948Y83.523I0.000J0.900
N14540G2X33.848Y84.423I0.900J0.000
N14550G00Z6.000
N14560G00X94.969Y82.658
N14570G01Z-0.100F20.0
N14580G2X94.069Y83.558I0.000J0.900F600.0
N14590G2X94.969Y84.458I0.900J0.000
N14600G2X95.869Y83.558I0.000J-0.900
N14610G2X94.969Y82.658I-0.900J0.000
N14620G00Z6.000
N14630G01Z-0.200F20.0
N14640G2X94.069Y83.558I0.000J0.900F600.0
N14650G2X94.969Y84.458I0.900J0.000
N14660G2X95.869Y83.558I0.000J-0.900
N14670G2X94.969Y82.658I-0.900J0.000
N14680G00Z6.000
N14690G01Z-0.300F20.0
N14700G2X94.069Y83.558I0.000J0.900F600.0
N14710G2X94.969Y84.458I0.900J0.000
N14720G2X95.869Y83.558I0.000J-0.900
N14730G2X94.969Y82.658I-0.900J0.000
N14740G00Z6.000
N14750G01Z-0.400F20.0
N14760G2X94.069Y83.558I0.000J0.900F600.0
N14770G2X94.969Y84.458I0.900J0.000
N14780G2X95.869Y83.558I0.000J-0.900
N14790G2X94.969Y82.658I-0.900J0.000
N14800G00Z6.000
N14810G01Z-0.500F20.0
N14820G2X94.069Y83.558I0.000J0.900F600.0
N14830G2X94.969Y84.458I0.900J0.000
N14840G2X95.869Y83.558I0.000J-0.900
N14850G2X94.969Y82.658I-0.900J0.000
N14860G00Z6.000
N14870G01Z-0.600F20.0
N14880G2X94.069Y83.558I0.000J0.900F600.0
N14890G2X94.969Y84.458I0.900J0.000
N14900G2X95.869Y83.558I0.000J-0.900
N14910G2X94.969Y82.658I-0.900J0.000
N14920G00Z6.000
N14930G01Z-0.700F20.0
N14940G2X94.069Y83.558I0.000J0.900F600.0
N14950G2X94.969Y84.458I0.900J0.000
N14960G2X95.869Y83.558I0.000J-0.900
N14970G2X94.969Y82.658I-0.900J0.000
N14980G00Z6.000
N14990G01Z-0.800F20.0
N15000G2X94.069Y83.558I0.000J0.900F600.0
N15010G2X94.969Y84.458I0.900J0.000
N15020G2X95.869Y83.558I0.000J-0.900
N15030G2X94.969Y82.658I-0.900J0.000
N15040G00Z6.000
N15050G01Z-0.900F20.0
N15060G2X94.069Y83.558I0.000J0.900F600.0
N15070G2X94.969Y84.458I0.900J0.000
N15080G2X95.869Y83.558I0.000J-0.900
N15090G2X94.969Y82.658I-0.900J0.000
N15100G00Z6.000
N15110G01Z-1.000F20.0
N15120G2X94.069Y83.558I0.000J0.900F600.0
N15130G2X94.969Y84.458I0.900J0.000
N15140G2X95.869Y83.558I0.000J-0.900
N15150G2X94.969Y82.658I-0.900J0.000
N15160G00Z6.000
N15170G01Z-1.100F20.0
N15180G2X94.069Y83.558I0.000J0.900F600.0
N15190G2X94.969Y84.458I0.900J0.000
N15200G2X95.869Y83.558I0.000J-0.900
N15210G2X94.969Y82.658I-0.900J0.000
N15220G00Z6.000
N15230G01Z-1.200F20.0
N15240G2X94.069Y83.558I0.000J0.900F600.0
N15250G2X94.969Y84.458I0.900J0.000
N15260G2X95.869Y83.558I0.000J-0.900
N15270G2X94.969Y82.658I-0.900J0.000
N15280G00Z6.000
N15290G01Z-1.300F20.0
N15300G2X94.069Y83.558I0.000J0.900F600.0
N15310G2X94.969Y84.458I0.900J0.000
N15320G2X95.869Y83.558I0.000J-0.900
N15330G2X94.969Y82.658I-0.900J0.000
N15340G00Z6.000
N15350G01Z-1.400F20.0
N15360G2X94.069Y83.558I0.000J0.900F600.0
N15370G2X94.969Y84.458I0.900J0.000
N15380G2X95.869Y83.558I0.000J-0.900
N15390G2X94.969Y82.658I-0.900J0.000
N15400G00Z6.000
N15410G01Z-1.500F20.0
N15420G2X94.069Y83.558I0.000J0.900F600.0
N15430G2X94.969Y84.458I0.900J0.000
N15440G2X95.869Y83.558I0.000J-0.900
N15450G2X94.969Y82.658I-0.900J0.000
N15460G00Z6.000
N15470G01Z-1.600F20.0
N15480G2X94.069Y83.558I0.000J0.900F600.0
N15490G2X94.969Y84.458I0.900J0.000
N15500G2X95.869Y83.558I0.000J-0.900
N15510G2X94.969Y82.658I-0.900J0.000
N15520G00Z6.000
N15530G01Z-1.700F20.0
N15540G2X94.069Y83.558I0.000J0.900F600.0
N15550G2X94.969Y84.458I0.900J0.000
N15560G2X95.869Y83.558I0.000J-0.900
N15570G2X94.969Y82.658I-0.900J0.000
N15580G00Z6.000
N15590G01Z-1.800F20.0
N15600G2X94.069Y83.558I0.000J0.900F600.0
N15610G2X94.969Y84.458I0.900J0.000
N15620G2X95.869Y83.558I0.000J-0.900
N15630G2X94.969Y82.658I-0.900J0.000
N15640G00Z6.000
N15650G01Z-1.900F20.0
N15660G2X94.069Y83.558I0.000J0.900F600.0
N15670G2X94.969Y84.458I0.900J0.000
N15680G2X95.869Y83.558I0.000J-0.900
N15690G2X94.969Y82.658I-0.900J0.000
N15700G00Z6.000
N15710G01Z-2.000F20.0
N15720G2X94.069Y83.558I0.000J0.900F600.0
N15730G2X94.969Y84.458I0.900J0.000
N15740G2X95.869Y83.558I0.000J-0.900
N15750G2X94.969Y82.658I-0.900J0.000
N15760G00Z6.000
N15770G01Z-2.100F20.0
N15780G2X94.069Y83.558I0.000J0.900F600.0
N15790G2X94.969Y84.458I0.900J0.000
N15800G2X95.869Y83.558I0.000J-0.900
N15810G2X94.969Y82.658I-0.900J0.000
N15820G00Z6.000
N15830G01Z-2.200F20.0
N15840G2X94.069Y83.558I0.000J0.900F600.0
N15850G2X94.969Y84.458I0.900J0.000
N15860G2X95.869Y83.558I0.000J-0.900
N15870G2X94.969Y82.658I-0.900J0.000
N15880G00Z6.000
N15890G01Z-2.300F20.0
N15900G2X94.069Y83.558I0.000J0.900F600.0
N15910G2X94.969Y84.458I0.900J0.000
N15920G2X95.869Y83.558I0.000J-0.900
N15930G2X94.969Y82.658I-0.900J0.000
N15940G00Z6.000
N15950G01Z-2.400F20.0
N15960G2X94.069Y83.558I0.000J0.900F600.0
N15970G2X94.969Y84.458I0.900J0.000
N15980G2X95.869Y83.558I0.000J-0.900
N15990G2X94.969Y82.658I-0.900J0.000
N16000G00Z6.000
N16010G01Z-2.500F20.0
N16020G2X94.069Y83.558I0.000J0.900F600.0
N16030G2X94.969Y84.458I0.900J0.000
N16040G2X95.869Y83.558I0.000J-0.900
N16050G2X94.969Y82.658I-0.900J0.000
N16060G00Z6.000
N16070G01Z-2.600F20.0
N16080G2X94.069Y83.558I0.000J0.900F600.0
N16090G2X94.969Y84.458I0.900J0.000
N16100G2X95.869Y83.558I0.000J-0.900
N16110G2X94.969Y82.658I-0.900J0.000
N16120G00Z6.000
N16130G01Z-2.700F20.0
N16140G2X94.069Y83.558I0.000J0.900F600.0
N16150G2X94.969Y84.458I0.900J0.000
N16160G2X95.869Y83.558I0.000J-0.900
N16170G2X94.969Y82.658I-0.900J0.000
N16180G00Z6.000
N16190G01Z-2.800F20.0
N16200G2X94.069Y83.558I0.000J0.900F600.0
N16210G2X94.969Y84.458I0.900J0.000
N16220G2X95.869Y83.558I0.000J-0.900
N16230G2X94.969Y82.658I-0.900J0.000
N16240G00Z6.000
N16250G01Z-2.900F20.0
N16260G2X94.069Y83.558I0.000J0.900F600.0
N16270G2X94.969Y84.458I0.900J0.000
N16280G2X95.869Y83.558I0.000J-0.900
N16290G2X94.969Y82.658I-0.900J0.000
N16300G00Z6.000
N16310G01Z-3.000F20.0
N16320G2X94.069Y83.558I0.000J0.900F600.0
N16330G2X94.969Y84.458I0.900J0.000
N16340G2X95.869Y83.558I0.000J-0.900
N16350G2X94.969Y82.658I-0.900J0.000
N16360G00Z6.000
N16370G00X102.969
N16380G01Z-0.100F20.0
N16390G2X102.069Y83.558I0.000J0.900F600.0
N16400G2X102.969Y84.458I0.900J0.000
N16410G2X103.869Y83.558I0.000J-0.900
N16420G2X102.969Y82.658I-0.900J0.000
N16430G00Z6.000
N16440G01Z-0.200F20.0
N16450G2X102.069Y83.558I0.000J0.900F600.0
N16460G2X102.969Y84.458I0.900J0.000
N16470G2X103.869Y83.558I0.000J-0.900
N16480G2X102.969Y82.658I-0.900J0.000
N16490G00Z6.000
N16500G01Z-0.300F20.0
N16510G2X102.069Y83.558I0.000J0.900F600.0
N16520G2X102.969Y84.458I0.900J0.000
N16530G2X103.869Y83.558I0.000J-0.900
N16540G2X102.969Y82.658I-0.900J0.000
N16550G00Z6.000
N16560G01Z-0.400F20.0
N16570G2X102.069Y83.558I0.000J0.900F600.0
N16580G2X102.969Y84.458I0.900J0.000
N16590G2X103.869Y83.558I0.000J-0.900
N16600G2X102.969Y82.658I-0.900J0.000
N16610G00Z6.000
N16620G01Z-0.500F20.0
N16630G2X102.069Y83.558I0.000J0.900F600.0
N16640G2X102.969Y84.458I0.900J0.000
N16650G2X103.869Y83.558I0.000J-0.900
N16660G2X102.969Y82.658I-0.900J0.000
N16670G00Z6.000
N16680G01Z-0.600F20.0
N16690G2X102.069Y83.558I0.000J0.900F600.0
N16700G2X102.969Y84.458I0.900J0.000
N16710G2X103.869Y83.558I0.000J-0.900
N16720G2X102.969Y82.658I-0.900J0.000
N16730G00Z6.000
N16740G01Z-0.700F20.0
N16750G2X102.069Y83.558I0.000J0.900F600.0
N16760G2X102.969Y84.458I0.900J0.000
N16770G2X103.869Y83.558I0.000J-0.900
N16780G2X102.969Y82.658I-0.900J0.000
N16790G00Z6.000
N16800G01Z-0.800F20.0
N16810G2X102.069Y83.558I0.000J0.900F600.0
N16820G2X102.969Y84.458I0.900J0.000
N16830G2X103.869Y83.558I0.000J-0.900
N16840G2X102.969Y82.658I-0.900J0.000
N16850G00Z6.000
N16860G01Z-0.900F20.0
N16870G2X102.069Y83.558I0.000J0.900F600.0
N16880G2X102.969Y84.458I0.900J0.000
N16890G2X103.869Y83.558I0.000J-0.900
N16900G2X102.969Y82.658I-0.900J0.000
N16910G00Z6.000
N16920G01Z-1.000F20.0
N16930G2X102.069Y83.558I0.000J0.900F600.0
N16940G2X102.969Y84.458I0.900J0.000
N16950G2X103.869Y83.558I0.000J-0.900
N16960G2X102.969Y82.658I-0.900J0.000
N16970G00Z6.000
N16980G01Z-1.100F20.0
N16990G2X102.069Y83.558I0.000J0.900F600.0
N17000G2X102.969Y84.458I0.900J0.000
N17010G2X103.869Y83.558I0.000J-0.900
N17020G2X102.969Y82.658I-0.900J0.000
N17030G00Z6.000
N17040G01Z-1.200F20.0
N17050G2X102.069Y83.558I0.000J0.900F600.0
N17060G2X102.969Y84.458I0.900J0.000
N17070G2X103.869Y83.558I0.000J-0.900
N17080G2X102.969Y82.658I-0.900J0.000
N17090G00Z6.000
N17100G01Z-1.300F20.0
N17110G2X102.069Y83.558I0.000J0.900F600.0
N17120G2X102.969Y84.458I0.900J0.000
N17130G2X103.869Y83.558I0.000J-0.900
N17140G2X102.969Y82.658I-0.900J0.000
N17150G00Z6.000
N17160G01Z-1.400F20.0
N17170G2X102.069Y83.558I0.000J0.900F600.0
N17180G2X102.969Y84.458I0.900J0.000
N17190G2X103.869Y83.558I0.000J-0.900
N17200G2X102.969Y82.658I-0.900J0.000
N17210G00Z6.000
N17220G01Z-1.500F20.0
N17230G2X102.069Y83.558I0.000J0.900F600.0
N17240G2X102.969Y84.458I0.900J0.000
N17250G2X103.869Y83.558I0.000J-0.900
N17260G2X102.969Y82.658I-0.900J0.000
N17270G00Z6.000
N17280G01Z-1.600F20.0
N17290G2X102.069Y83.558I0.000J0.900F600.0
N17300G2X102.969Y84.458I0.900J0.000
N17310G2X103.869Y83.558I0.000J-0.900
N17320G2X102.969Y82.658I-0.900J0.000
N17330G00Z6.000
N17340G01Z-1.700F20.0
N17350G2X102.069Y83.558I0.000J0.900F600.0
N17360G2X102.969Y84.458I0.900J0.000
N17370G2X103.869Y83.558I0.000J-0.900
N17380G2X102.969Y82.658I-0.900J0.000
N17390G00Z6.000
N17400G01Z-1.800F20.0
N17410G2X102.069Y83.558I0.000J0.900F600.0
N17420G2X102.969Y84.458I0.900J0.000
N17430G2X103.869Y83.558I0.000J-0.900
N17440G2X102.969Y82.658I-0.900J0.000
N17450G00Z6.000
N17460G01Z-1.900F20.0
N17470G2X102.069Y83.558I0.000J0.900F600.0
N17480G2X102.969Y84.458I0.900J0.000
N17490G2X103.869Y83.558I0.000J-0.900
N17500G2X102.969Y82.658I-0.900J0.000
N17510G00Z6.000
N17520G01Z-2.000F20.0
N17530G2X102.069Y83.558I0.000J0.900F600.0
N17540G2X102.969Y84.458I0.900J0.000
N17550G2X103.869Y83.558I0.000J-0.900
N17560G2X102.969Y82.658I-0.900J0.000
N17570G00Z6.000
N17580G01Z-2.100F20.0
N17590G2X102.069Y83.558I0.000J0.900F600.0
N17600G2X102.969Y84.458I0.900J0.000
N17610G2X103.869Y83.558I0.000J-0.900
N17620G2X102.969Y82.658I-0.900J0.000
N17630G00Z6.000
N17640G01Z-2.200F20.0
N17650G2X102.069Y83.558I0.000J0.900F600.0
N17660G2X102.969Y84.458I0.900J0.000
N17670G2X103.869Y83.558I0.000J-0.900
N17680G2X102.969Y82.658I-0.900J0.000
N17690G00Z6.000
N17700G01Z-2.300F20.0
N17710G2X102.069Y83.558I0.000J0.900F600.0
N17720G2X102.969Y84.458I0.900J0.000
N17730G2X103.869Y83.558I0.000J-0.900
N17740G2X102.969Y82.658I-0.900J0.000
N17750G00Z6.000
N17760G01Z-2.400F20.0
N17770G2X102.069Y83.558I0.000J0.900F600.0
N17780G2X102.969Y84.458I0.900J0.000
N17790G2X103.869Y83.558I0.000J-0.900
N17800G2X102.969Y82.658I-0.900J0.000
N17810G00Z6.000
N17820G01Z-2.500F20.0
N17830G2X102.069Y83.558I0.000J0.900F600.0
N17840G2X102.969Y84.458I0.900J0.000
N17850G2X103.869Y83.558I0.000J-0.900
N17860G2X102.969Y82.658I-0.900J0.000
N17870G00Z6.000
N17880G01Z-2.600F20.0
N17890G2X102.069Y83.558I0.000J0.900F600.0
N17900G2X102.969Y84.458I0.900J0.000
N17910G2X103.869Y83.558I0.000J-0.900
N17920G2X102.969Y82.658I-0.900J0.000
N17930G00Z6.000
N17940G01Z-2.700F20.0
N17950G2X102.069Y83.558I0.000J0.900F600.0
N17960G2X102.969Y84.458I0.900J0.000
N17970G2X103.869Y83.558I0.000J-0.900
N17980G2X102.969Y82.658I-0.900J0.000
N17990G00Z6.000
N18000G01Z-2.800F20.0
N18010G2X102.069Y83.558I0.000J0.900F600.0
N18020G2X102.969Y84.458I0.900J0.000
N18030G2X103.869Y83.558I0.000J-0.900
N18040G2X102.969Y82.658I-0.900J0.000
N18050G00Z6.000
N18060G01Z-2.900F20.0
N18070G2X102.069Y83.558I0.000J0.900F600.0
N18080G2X102.969Y84.458I0.900J0.000
N18090G2X103.869Y83.558I0.000J-0.900
N18100G2X102.969Y82.658I-0.900J0.000
N18110G00Z6.000
N18120G01Z-3.000F20.0
N18130G2X102.069Y83.558I0.000J0.900F600.0
N18140G2X102.969Y84.458I0.900J0.000
N18150G2X103.869Y83.558I0.000J-0.900
N18160G2X102.969Y82.658I-0.900J0.000
N18170G00Z6.000
N18180G00X110.969
N18190G01Z-0.100F20.0
N18200G2X110.069Y83.558I0.000J0.900F600.0
N18210G2X110.969Y84.458I0.900J0.000
N18220G2X111.869Y83.558I0.000J-0.900
N18230G2X110.969Y82.658I-0.900J0.000
N18240G00Z6.000
N18250G01Z-0.200F20.0
N18260G2X110.069Y83.558I0.000J0.900F600.0
N18270G2X110.969Y84.458I0.900J0.000
N18280G2X111.869Y83.558I0.000J-0.900
N18290G2X110.969Y82.658I-0.900J0.000
N18300G00Z6.000
N18310G01Z-0.300F20.0
N18320G2X110.069Y83.558I0.000J0.900F600.0
N18330G2X110.969Y84.458I0.900J0.000
N18340G2X111.869Y83.558I0.000J-0.900
N18350G2X110.969Y82.658I-0.900J0.000
N18360G00Z6.000
N18370G01Z-0.400F20.0
N18380G2X110.069Y83.558I0.000J0.900F600.0
N18390G2X110.969Y84.458I0.900J0.000
N18400G2X111.869Y83.558I0.000J-0.900
N18410G2X110.969Y82.658I-0.900J0.000
N18420G00Z6.000
N18430G01Z-0.500F20.0
N18440G2X110.069Y83.558I0.000J0.900F600.0
N18450G2X110.969Y84.458I0.900J0.000
N18460G2X111.869Y83.558I0.000J-0.900
N18470G2X110.969Y82.658I-0.900J0.000
N18480G00Z6.000
N18490G01Z-0.600F20.0
N18500G2X110.069Y83.558I0.000J0.900F600.0
N18510G2X110.969Y84.458I0.900J0.000
N18520G2X111.869Y83.558I0.000J-0.900
N18530G2X110.969Y82.658I-0.900J0.000
N18540G00Z6.000
N18550G01Z-0.700F20.0
N18560G2X110.069Y83.558I0.000J0.900F600.0
N18570G2X110.969Y84.458I0.900J0.000
N18580G2X111.869Y83.558I0.000J-0.900
N18590G2X110.969Y82.658I-0.900J0.000
N18600G00Z6.000
N18610G01Z-0.800F20.0
N18620G2X110.069Y83.558I0.000J0.900F600.0
N18630G2X110.969Y84.458I0.900J0.000
N18640G2X111.869Y83.558I0.000J-0.900
N18650G2X110.969Y82.658I-0.900J0.000
N18660G00Z6.000
N18670G01Z-0.900F20.0
N18680G2X110.069Y83.558I0.000J0.900F600.0
N18690G2X110.969Y84.458I0.900J0.000
N18700G2X111.869Y83.558I0.000J-0.900
N18710G2X110.969Y82.658I-0.900J0.000
N18720G00Z6.000
N18730G01Z-1.000F20.0
N18740G2X110.069Y83.558I0.000J0.900F600.0
N18750G2X110.969Y84.458I0.900J0.000
N18760G2X111.869Y83.558I0.000J-0.900
N18770G2X110.969Y82.658I-0.900J0.000
N18780G00Z6.000
N18790G01Z-1.100F20.0
N18800G2X110.069Y83.558I0.000J0.900F600.0
N18810G2X110.969Y84.458I0.900J0.000
N18820G2X111.869Y83.558I0.000J-0.900
N18830G2X110.969Y82.658I-0.900J0.000
N18840G00Z6.000
N18850G01Z-1.200F20.0
N18860G2X110.069Y83.558I0.000J0.900F600.0
N18870G2X110.969Y84.458I0.900J0.000
N18880G2X111.869Y83.558I0.000J-0.900
N18890G2X110.969Y82.658I-0.900J0.000
N18900G00Z6.000
N18910G01Z-1.300F20.0
N18920G2X110.069Y83.558I0.000J0.900F600.0
N18930G2X110.969Y84.458I0.900J0.000
N18940G2X111.869Y83.558I0.000J-0.900
N18950G2X110.969Y82.658I-0.900J0.000
N18960G00Z6.000
N18970G01Z-1.400F20.0
N18980G2X110.069Y83.558I0.000J0.900F600.0
N18990G2X110.969Y84.458I0.900J0.000
N19000G2X111.869Y83.558I0.000J-0.900
N19010G2X110.969Y82.658I-0.900J0.000
N19020G00Z6.000
N19030G01Z-1.500F20.0
N19040G2X110.069Y83.558I0.000J0.900F600.0
N19050G2X110.969Y84.458I0.900J0.000
N19060G2X111.869Y83.558I0.000J-0.900
N19070G2X110.969Y82.658I-0.900J0.000
N19080G00Z6.000
N19090G01Z-1.600F20.0
N19100G2X110.069Y83.558I0.000J0.900F600.0
N19110G2X110.969Y84.458I0.900J0.000
N19120G2X111.869Y83.558I0.000J-0.900
N19130G2X110.969Y82.658I-0.900J0.000
N19140G00Z6.000
N19150G01Z-1.700F20.0
N19160G2X110.069Y83.558I0.000J0.900F600.0
N19170G2X110.969Y84.458I0.900J0.000
N19180G2X111.869Y83.558I0.000J-0.900
N19190G2X110.969Y82.658I-0.900J0.000
N19200G00Z6.000
N19210G01Z-1.800F20.0
N19220G2X110.069Y83.558I0.000J0.900F600.0
N19230G2X110.969Y84.458I0.900J0.000
N19240G2X111.869Y83.558I0.000J-0.900
N19250G2X110.969Y82.658I-0.900J0.000
N19260G00Z6.000
N19270G01Z-1.900F20.0
N19280G2X110.069Y83.558I0.000J0.900F600.0
N19290G2X110.969Y84.458I0.900J0.000
N19300G2X111.869Y83.558I0.000J-0.900
N19310G2X110.969Y82.658I-0.900J0.000
N19320G00Z6.000
N19330G01Z-2.000F20.0
N19340G2X110.069Y83.558I0.000J0.900F600.0
N19350G2X110.969Y84.458I0.900J0.000
N19360G2X111.869Y83.558I0.000J-0.900
N19370G2X110.969Y82.658I-0.900J0.000
N19380G00Z6.000
N19390G01Z-2.100F20.0
N19400G2X110.069Y83.558I0.000J0.900F600.0
N19410G2X110.969Y84.458I0.900J0.000
N19420G2X111.869Y83.558I0.000J-0.900
N19430G2X110.969Y82.658I-0.900J0.000
N19440G00Z6.000
N19450G01Z-2.200F20.0
N19460G2X110.069Y83.558I0.000J0.900F600.0
N19470G2X110.969Y84.458I0.900J0.000
N19480G2X111.869Y83.558I0.000J-0.900
N19490G2X110.969Y82.658I-0.900J0.000
N19500G00Z6.000
N19510G01Z-2.300F20.0
N19520G2X110.069Y83.558I0.000J0.900F600.0
N19530G2X110.969Y84.458I0.900J0.000
N19540G2X111.869Y83.558I0.000J-0.900
N19550G2X110.969Y82.658I-0.900J0.000
N19560G00Z6.000
N19570G01Z-2.400F20.0
N19580G2X110.069Y83.558I0.000J0.900F600.0
N19590G2X110.969Y84.458I0.900J0.000
N19600G2X111.869Y83.558I0.000J-0.900
N19610G2X110.969Y82.658I-0.900J0.000
N19620G00Z6.000
N19630G01Z-2.500F20.0
N19640G2X110.069Y83.558I0.000J0.900F600.0
N19650G2X110.969Y84.458I0.900J0.000
N19660G2X111.869Y83.558I0.000J-0.900
N19670G2X110.969Y82.658I-0.900J0.000
N19680G00Z6.000
N19690G01Z-2.600F20.0
N19700G2X110.069Y83.558I0.000J0.900F600.0
N19710G2X110.969Y84.458I0.900J0.000
N19720G2X111.869Y83.558I0.000J-0.900
N19730G2X110.969Y82.658I-0.900J0.000
N19740G00Z6.000
N19750G01Z-2.700F20.0
N19760G2X110.069Y83.558I0.000J0.900F600.0
N19770G2X110.969Y84.458I0.900J0.000
N19780G2X111.869Y83.558I0.000J-0.900
N19790G2X110.969Y82.658I-0.900J0.000
N19800G00Z6.000
N19810G01Z-2.800F20.0
N19820G2X110.069Y83.558I0.000J0.900F600.0
N19830G2X110.969Y84.458I0.900J0.000
N19840G2X111.869Y83.558I0.000J-0.900
N19850G2X110.969Y82.658I-0.900J0.000
N19860G00Z6.000
N19870G01Z-2.900F20.0
N19880G2X110.069Y83.558I0.000J0.900F600.0
N19890G2X110.969Y84.458I0.900J0.000
N19900G2X111.869Y83.558I0.000J-0.900
N19910G2X110.969Y82.658I-0.900J0.000
N19920G00Z6.000
N19930G01Z-3.000F20.0
N19940G2X110.069Y83.558I0.000J0.900F600.0
N19950G2X110.969Y84.458I0.900J0.000
N19960G2X111.869Y83.558I0.000J-0.900
N19970G2X110.969Y82.658I-0.900J0.000
N19980G00Z6.000
N19990G00X116.469Y77.158
N20000G01Z-0.100F20.0
N20010G2X115.569Y78.058I0.000J0.900F600.0
N20020G2X116.469Y78.958I0.900J0.000
N20030G2X117.369Y78.058I0.000J-0.900
N20040G2X116.469Y77.158I-0.900J0.000
N20050G00Z6.000
N20060G01Z-0.200F20.0
N20070G2X115.569Y78.058I0.000J0.900F600.0
N20080G2X116.469Y78.958I0.900J0.000
N20090G2X117.369Y78.058I0.000J-0.900
N20100G2X116.469Y77.158I-0.900J0.000
N20110G00Z6.000
N20120G01Z-0.300F20.0
N20130G2X115.569Y78.058I0.000J0.900F600.0
N20140G2X116.469Y78.958I0.900J0.000
N20150G2X117.369Y78.058I0.000J-0.900
N20160G2X116.469Y77.158I-0.900J0.000
N20170G00Z6.000
N20180G01Z-0.400F20.0
N20190G2X115.569Y78.058I0.000J0.900F600.0
N20200G2X116.469Y78.958I0.900J0.000
N20210G2X117.369Y78.058I0.000J-0.900
N20220G2X116.469Y77.158I-0.900J0.000
N20230G00Z6.000
N20240G01Z-0.500F20.0
N20250G2X115.569Y78.058I0.000J0.900F600.0
N20260G2X116.469Y78.958I0.900J0.000
N20270G2X117.369Y78.058I0.000J-0.900
N20280G2X116.469Y77.158I-0.900J0.000
N20290G00Z6.000
N20300G01Z-0.600F20.0
N20310G2X115.569Y78.058I0.000J0.900F600.0
N20320G2X116.469Y78.958I0.900J0.000
N20330G2X117.369Y78.058I0.000J-0.900
N20340G2X116.469Y77.158I-0.900J0.000
N20350G00Z6.000
N20360G01Z-0.700F20.0
N20370G2X115.569Y78.058I0.000J0.900F600.0
N20380G2X116.469Y78.958I0.900J0.000
N20390G2X117.369Y78.058I0.000J-0.900
N20400G2X116.469Y77.158I-0.900J0.000
N20410G00Z6.000
N20420G01Z-0.800F20.0
N20430G2X115.569Y78.058I0.000J0.900F600.0
N20440G2X116.469Y78.958I0.900J0.000
N20450G2X117.369Y78.058I0.000J-0.900
N20460G2X116.469Y77.158I-0.900J0.000
N20470G00Z6.000
N20480G01Z-0.900F20.0
N20490G2X115.569Y78.058I0.000J0.900F600.0
N20500G2X116.469Y78.958I0.900J0.000
N20510G2X117.369Y78.058I0.000J-0.900
N20520G2X116.469Y77.158I-0.900J0.000
N20530G00Z6.000
N20540G01Z-1.000F20.0
N20550G2X115.569Y78.058I0.000J0.900F600.0
N20560G2X116.469Y78.958I0.900J0.000
N20570G2X117.369Y78.058I0.000J-0.900
N20580G2X116.469Y77.158I-0.900J0.000
N20590G00Z6.000
N20600G01Z-1.100F20.0
N20610G2X115.569Y78.058I0.000J0.900F600.0
N20620G2X116.469Y78.958I0.900J0.000
N20630G2X117.369Y78.058I0.000J-0.900
N20640G2X116.469Y77.158I-0.900J0.000
N20650G00Z6.000
N20660G01Z-1.200F20.0
N20670G2X115.569Y78.058I0.000J0.900F600.0
N20680G2X116.469Y78.958I0.900J0.000
N20690G2X117.369Y78.058I0.000J-0.900
N20700G2X116.469Y77.158I-0.900J0.000
N20710G00Z6.000
N20720G01Z-1.300F20.0
N20730G2X115.569Y78.058I0.000J0.900F600.0
N20740G2X116.469Y78.958I0.900J0.000
N20750G2X117.369Y78.058I0.000J-0.900
N20760G2X116.469Y77.158I-0.900J0.000
N20770G00Z6.000
N20780G01Z-1.400F20.0
N20790G2X115.569Y78.058I0.000J0.900F600.0
N20800G2X116.469Y78.958I0.900J0.000
N20810G2X117.369Y78.058I0.000J-0.900
N20820G2X116.469Y77.158I-0.900J0.000
N20830G00Z6.000
N20840G01Z-1.500F20.0
N20850G2X115.569Y78.058I0.000J0.900F600.0
N20860G2X116.469Y78.958I0.900J0.000
N20870G2X117.369Y78.058I0.000J-0.900
N20880G2X116.469Y77.158I-0.900J0.000
N20890G00Z6.000
N20900G01Z-1.600F20.0
N20910G2X115.569Y78.058I0.000J0.900F600.0
N20920G2X116.469Y78.958I0.900J0.000
N20930G2X117.369Y78.058I0.000J-0.900
N20940G2X116.469Y77.158I-0.900J0.000
N20950G00Z6.000
N20960G01Z-1.700F20.0
N20970G2X115.569Y78.058I0.000J0.900F600.0
N20980G2X116.469Y78.958I0.900J0.000
N20990G2X117.369Y78.058I0.000J-0.900
N21000G2X116.469Y77.158I-0.900J0.000
N21010G00Z6.000
N21020G01Z-1.800F20.0
N21030G2X115.569Y78.058I0.000J0.900F600.0
N21040G2X116.469Y78.958I0.900J0.000
N21050G2X117.369Y78.058I0.000J-0.900
N21060G2X116.469Y77.158I-0.900J0.000
N21070G00Z6.000
N21080G01Z-1.900F20.0
N21090G2X115.569Y78.058I0.000J0.900F600.0
N21100G2X116.469Y78.958I0.900J0.000
N21110G2X117.369Y78.058I0.000J-0.900
N21120G2X116.469Y77.158I-0.900J0.000
N21130G00Z6.000
N21140G01Z-2.000F20.0
N21150G2X115.569Y78.058I0.000J0.900F600.0
N21160G2X116.469Y78.958I0.900J0.000
N21170G2X117.369Y78.058I0.000J-0.900
N21180G2X116.469Y77.158I-0.900J0.000
N21190G00Z6.000
N21200G01Z-2.100F20.0
N21210G2X115.569Y78.058I0.000J0.900F600.0
N21220G2X116.469Y78.958I0.900J0.000
N21230G2X117.369Y78.058I0.000J-0.900
N21240G2X116.469Y77.158I-0.900J0.000
N21250G00Z6.000
N21260G01Z-2.200F20.0
N21270G2X115.569Y78.058I0.000J0.900F600.0
N21280G2X116.469Y78.958I0.900J0.000
N21290G2X117.369Y78.058I0.000J-0.900
N21300G2X116.469Y77.158I-0.900J0.000
N21310G00Z6.000
N21320G01Z-2.300F20.0
N21330G2X115.569Y78.058I0.000J0.900F600.0
N21340G2X116.469Y78.958I0.900J0.000
N21350G2X117.369Y78.058I0.000J-0.900
N21360G2X116.469Y77.158I-0.900J0.000
N21370G00Z6.000
N21380G01Z-2.400F20.0
N21390G2X115.569Y78.058I0.000J0.900F600.0
N21400G2X116.469Y78.958I0.900J0.000
N21410G2X117.369Y78.058I0.000J-0.900
N21420G2X116.469Y77.158I-0.900J0.000
N21430G00Z6.000
N21440G01Z-2.500F20.0
N21450G2X115.569Y78.058I0.000J0.900F600.0
N21460G2X116.469Y78.958I0.900J0.000
N21470G2X117.369Y78.058I0.000J-0.900
N21480G2X116.469Y77.158I-0.900J0.000
N21490G00Z6.000
N21500G01Z-2.600F20.0
N21510G2X115.569Y78.058I0.000J0.900F600.0
N21520G2X116.469Y78.958I0.900J0.000
N21530G2X117.369Y78.058I0.000J-0.900
N21540G2X116.469Y77.158I-0.900J0.000
N21550G00Z6.000
N21560G01Z-2.700F20.0
N21570G2X115.569Y78.058I0.000J0.900F600.0
N21580G2X116.469Y78.958I0.900J0.000
N21590G2X117.369Y78.058I0.000J-0.900
N21600G2X116.469Y77.158I-0.900J0.000
N21610G00Z6.000
N21620G01Z-2.800F20.0
N21630G2X115.569Y78.058I0.000J0.900F600.0
N21640G2X116.469Y78.958I0.900J0.000
N21650G2X117.369Y78.058I0.000J-0.900
N21660G2X116.469Y77.158I-0.900J0.000
N21670G00Z6.000
N21680G01Z-2.900F20.0
N21690G2X115.569Y78.058I0.000J0.900F600.0
N21700G2X116.469Y78.958I0.900J0.000
N21710G2X117.369Y78.058I0.000J-0.900
N21720G2X116.469Y77.158I-0.900J0.000
N21730G00Z6.000
N21740G01Z-3.000F20.0
N21750G2X115.569Y78.058I0.000J0.900F600.0
N21760G2X116.469Y78.958I0.900J0.000
N21770G2X117.369Y78.058I0.000J-0.900
N21780G2X116.469Y77.158I-0.900J0.000
N21790G00Z6.000
N21800G00Y61.158
N21810G01Z-0.100F20.0
N21820G2X115.569Y62.058I0.000J0.900F600.0
N21830G2X116.469Y62.958I0.900J0.000
N21840G2X117.369Y62.058I0.000J-0.900
N21850G2X116.469Y61.158I-0.900J0.000
N21860G00Z6.000
N21870G01Z-0.200F20.0
N21880G2X115.569Y62.058I0.000J0.900F600.0
N21890G2X116.469Y62.958I0.900J0.000
N21900G2X117.369Y62.058I0.000J-0.900
N21910G2X116.469Y61.158I-0.900J0.000
N21920G00Z6.000
N21930G01Z-0.300F20.0
N21940G2X115.569Y62.058I0.000J0.900F600.0
N21950G2X116.469Y62.958I0.900J0.000
N21960G2X117.369Y62.058I0.000J-0.900
N21970G2X116.469Y61.158I-0.900J0.000
N21980G00Z6.000
N21990G01Z-0.400F20.0
N22000G2X115.569Y62.058I0.000J0.900F600.0
N22010G2X116.469Y62.958I0.900J0.000
N22020G2X117.369Y62.058I0.000J-0.900
N22030G2X116.469Y61.158I-0.900J0.000
N22040G00Z6.000
N22050G01Z-0.500F20.0
N22060G2X115.569Y62.058I0.000J0.900F600.0
N22070G2X116.469Y62.958I0.900J0.000
N22080G2X117.369Y62.058I0.000J-0.900
N22090G2X116.469Y61.158I-0.900J0.000
N22100G00Z6.000
N22110G01Z-0.600F20.0
N22120G2X115.569Y62.058I0.000J0.900F600.0
N22130G2X116.469Y62.958I0.900J0.000
N22140G2X117.369Y62.058I0.000J-0.900
N22150G2X116.469Y61.158I-0.900J0.000
N22160G00Z6.000
N22170G01Z-0.700F20.0
N22180G2X115.569Y62.058I0.000J0.900F600.0
N22190G2X116.469Y62.958I0.900J0.000
N22200G2X117.369Y62.058I0.000J-0.900
N22210G2X116.469Y61.158I-0.900J0.000
N22220G00Z6.000
N22230G01Z-0.800F20.0
N22240G2X115.569Y62.058I0.000J0.900F600.0
N22250G2X116.469Y62.958I0.900J0.000
N22260G2X117.369Y62.058I0.000J-0.900
N22270G2X116.469Y61.158I-0.900J0.000
N22280G00Z6.000
N22290G01Z-0.900F20.0
N22300G2X115.569Y62.058I0.000J0.900F600.0
N22310G2X116.469Y62.958I0.900J0.000
N22320G2X117.369Y62.058I0.000J-0.900
N22330G2X116.469Y61.158I-0.900J0.000
N22340G00Z6.000
N22350G01Z-1.000F20.0
N22360G2X115.569Y62.058I0.000J0.900F600.0
N22370G2X116.469Y62.958I0.900J0.000
N22380G2X117.369Y62.058I0.000J-0.900
N22390G2X116.469Y61.158I-0.900J0.000
N22400G00Z6.000
N22410G01Z-1.100F20.0
N22420G2X115.569Y62.058I0.000J0.900F600.0
N22430G2X116.469Y62.958I0.900J0.000
N22440G2X117.369Y62.058I0.000J-0.900
N22450G2X116.469Y61.158I-0.900J0.000
N22460G00Z6.000
N22470G01Z-1.200F20.0
N22480G2X115.569Y62.058I0.000J0.900F600.0
N22490G2X116.469Y62.958I0.900J0.000
N22500G2X117.369Y62.058I0.000J-0.900
N22510G2X116.469Y61.158I-0.900J0.000
N22520G00Z6.000
N22530G01Z-1.300F20.0
N22540G2X115.569Y62.058I0.000J0.900F600.0
N22550G2X116.469Y62.958I0.900J0.000
N22560G2X117.369Y62.058I0.000J-0.900
N22570G2X116.469Y61.158I-0.900J0.000
N22580G00Z6.000
N22590G01Z-1.400F20.0
N22600G2X115.569Y62.058I0.000J0.900F600.0
N22610G2X116.469Y62.958I0.900J0.000
N22620G2X117.369Y62.058I0.000J-0.900
N22630G2X116.469Y61.158I-0.900J0.000
N22640G00Z6.000
N22650G01Z-1.500F20.0
N22660G2X115.569Y62.058I0.000J0.900F600.0
N22670G2X116.469Y62.958I0.900J0.000
N22680G2X117.369Y62.058I0.000J-0.900
N22690G2X116.469Y61.158I-0.900J0.000
N22700G00Z6.000
N22710G01Z-1.600F20.0
N22720G2X115.569Y62.058I0.000J0.900F600.0
N22730G2X116.469Y62.958I0.900J0.000
N22740G2X117.369Y62.058I0.000J-0.900
N22750G2X116.469Y61.158I-0.900J0.000
N22760G00Z6.000
N22770G01Z-1.700F20.0
N22780G2X115.569Y62.058I0.000J0.900F600.0
N22790G2X116.469Y62.958I0.900J0.000
N22800G2X117.369Y62.058I0.000J-0.900
N22810G2X116.469Y61.158I-0.900J0.000
N22820G00Z6.000
N22830G01Z-1.800F20.0
N22840G2X115.569Y62.058I0.000J0.900F600.0
N22850G2X116.469Y62.958I0.900J0.000
N22860G2X117.369Y62.058I0.000J-0.900
N22870G2X116.469Y61.158I-0.900J0.000
N22880G00Z6.000
N22890G01Z-1.900F20.0
N22900G2X115.569Y62.058I0.000J0.900F600.0
N22910G2X116.469Y62.958I0.900J0.000
N22920G2X117.369Y62.058I0.000J-0.900
N22930G2X116.469Y61.158I-0.900J0.000
N22940G00Z6.000
N22950G01Z-2.000F20.0
N22960G2X115.569Y62.058I0.000J0.900F600.0
N22970G2X116.469Y62.958I0.900J0.000
N22980G2X117.369Y62.058I0.000J-0.900
N22990G2X116.469Y61.158I-0.900J0.000
N23000G00Z6.000
N23010G01Z-2.100F20.0
N23020G2X115.569Y62.058I0.000J0.900F600.0
N23030G2X116.469Y62.958I0.900J0.000
N23040G2X117.369Y62.058I0.000J-0.900
N23050G2X116.469Y61.158I-0.900J0.000
N23060G00Z6.000
N23070G01Z-2.200F20.0
N23080G2X115.569Y62.058I0.000J0.900F600.0
N23090G2X116.469Y62.958I0.900J0.000
N23100G2X117.369Y62.058I0.000J-0.900
N23110G2X116.469Y61.158I-0.900J0.000
N23120G00Z6.000
N23130G01Z-2.300F20.0
N23140G2X115.569Y62.058I0.000J0.900F600.0
N23150G2X116.469Y62.958I0.900J0.000
N23160G2X117.369Y62.058I0.000J-0.900
N23170G2X116.469Y61.158I-0.900J0.000
N23180G00Z6.000
N23190G01Z-2.400F20.0
N23200G2X115.569Y62.058I0.000J0.900F600.0
N23210G2X116.469Y62.958I0.900J0.000
N23220G2X117.369Y62.058I0.000J-0.900
N23230G2X116.469Y61.158I-0.900J0.000
N23240G00Z6.000
N23250G01Z-2.500F20.0
N23260G2X115.569Y62.058I0.000J0.900F600.0
N23270G2X116.469Y62.958I0.900J0.000
N23280G2X117.369Y62.058I0.000J-0.900
N23290G2X116.469Y61.158I-0.900J0.000
N23300G00Z6.000
N23310G01Z-2.600F20.0
N23320G2X115.569Y62.058I0.000J0.900F600.0
N23330G2X116.469Y62.958I0.900J0.000
N23340G2X117.369Y62.058I0.000J-0.900
N23350G2X116.469Y61.158I-0.900J0.000
N23360G00Z6.000
N23370G01Z-2.700F20.0
N23380G2X115.569Y62.058I0.000J0.900F600.0
N23390G2X116.469Y62.958I0.900J0.000
N23400G2X117.369Y62.058I0.000J-0.900
N23410G2X116.469Y61.158I-0.900J0.000
N23420G00Z6.000
N23430G01Z-2.800F20.0
N23440G2X115.569Y62.058I0.000J0.900F600.0
N23450G2X116.469Y62.958I0.900J0.000
N23460G2X117.369Y62.058I0.000J-0.900
N23470G2X116.469Y61.158I-0.900J0.000
N23480G00Z6.000
N23490G01Z-2.900F20.0
N23500G2X115.569Y62.058I0.000J0.900F600.0
N23510G2X116.469Y62.958I0.900J0.000
N23520G2X117.369Y62.058I0.000J-0.900
N23530G2X116.469Y61.158I-0.900J0.000
N23540G00Z6.000
N23550G01Z-3.000F20.0
N23560G2X115.569Y62.058I0.000J0.900F600.0
N23570G2X116.469Y62.958I0.900J0.000
N23580G2X117.369Y62.058I0.000J-0.900
N23590G2X116.469Y61.158I-0.900J0.000
N23600G00Z6.000
N23610G00X110.969Y55.658
N23620G01Z-0.100F20.0
N23630G2X110.069Y56.558I0.000J0.900F600.0
N23640G2X110.969Y57.458I0.900J0.000
N23650G2X111.869Y56.558I0.000J-0.900
N23660G2X110.969Y55.658I-0.900J0.000
N23670G00Z6.000
N23680G01Z-0.200F20.0
N23690G2X110.069Y56.558I0.000J0.900F600.0
N23700G2X110.969Y57.458I0.900J0.000
N23710G2X111.869Y56.558I0.000J-0.900
N23720G2X110.969Y55.658I-0.900J0.000
N23730G00Z6.000
N23740G01Z-0.300F20.0
N23750G2X110.069Y56.558I0.000J0.900F600.0
N23760G2X110.969Y57.458I0.900J0.000
N23770G2X111.869Y56.558I0.000J-0.900
N23780G2X110.969Y55.658I-0.900J0.000
N23790G00Z6.000
N23800G01Z-0.400F20.0
N23810G2X110.069Y56.558I0.000J0.900F600.0
N23820G2X110.969Y57.458I0.900J0.000
N23830G2X111.869Y56.558I0.000J-0.900
N23840G2X110.969Y55.658I-0.900J0.000
N23850G00Z6.000
N23860G01Z-0.500F20.0
N23870G2X110.069Y56.558I0.000J0.900F600.0
N23880G2X110.969Y57.458I0.900J0.000
N23890G2X111.869Y56.558I0.000J-0.900
N23900G2X110.969Y55.658I-0.900J0.000
N23910G00Z6.000
N23920G01Z-0.600F20.0
N23930G2X110.069Y56.558I0.000J0.900F600.0
N23940G2X110.969Y57.458I0.900J0.000
N23950G2X111.869Y56.558I0.000J-0.900
N23960G2X110.969Y55.658I-0.900J0.000
N23970G00Z6.000
N23980G01Z-0.700F20.0
N23990G2X110.069Y56.558I0.000J0.900F600.0
N24000G2X110.969Y57.458I0.900J0.000
N24010G2X111.869Y56.558I0.000J-0.900
N24020G2X110.969Y55.658I-0.900J0.000
N24030G00Z6.000
N24040G01Z-0.800F20.0
N24050G2X110.069Y56.558I0.000J0.900F600.0
N24060G2X110.969Y57.458I0.900J0.000
N24070G2X111.869Y56.558I0.000J-0.900
N24080G2X110.969Y55.658I-0.900J0.000
N24090G00Z6.000
N24100G01Z-0.900F20.0
N24110G2X110.069Y56.558I0.000J0.900F600.0
N24120G2X110.969Y57.458I0.900J0.000
N24130G2X111.869Y56.558I0.000J-0.900
N24140G2X110.969Y55.658I-0.900J0.000
N24150G00Z6.000
N24160G01Z-1.000F20.0
N24170G2X110.069Y56.558I0.000J0.900F600.0
N24180G2X110.969Y57.458I0.900J0.000
N24190G2X111.869Y56.558I0.000J-0.900
N24200G2X110.969Y55.658I-0.900J0.000
N24210G00Z6.000
N24220G01Z-1.100F20.0
N24230G2X110.069Y56.558I0.000J0.900F600.0
N24240G2X110.969Y57.458I0.900J0.000
N24250G2X111.869Y56.558I0.000J-0.900
N24260G2X110.969Y55.658I-0.900J0.000
N24270G00Z6.000
N24280G01Z-1.200F20.0
N24290G2X110.069Y56.558I0.000J0.900F600.0
N24300G2X110.969Y57.458I0.900J0.000
N24310G2X111.869Y56.558I0.000J-0.900
N24320G2X110.969Y55.658I-0.900J0.000
N24330G00Z6.000
N24340G01Z-1.300F20.0
N24350G2X110.069Y56.558I0.000J0.900F600.0
N24360G2X110.969Y57.458I0.900J0.000
N24370G2X111.869Y56.558I0.000J-0.900
N24380G2X110.969Y55.658I-0.900J0.000
N24390G00Z6.000
N24400G01Z-1.400F20.0
N24410G2X110.069Y56.558I0.000J0.900F600.0
N24420G2X110.969Y57.458I0.900J0.000
N24430G2X111.869Y56.558I0.000J-0.900
N24440G2X110.969Y55.658I-0.900J0.000
N24450G00Z6.000
N24460G01Z-1.500F20.0
N24470G2X110.069Y56.558I0.000J0.900F600.0
N24480G2X110.969Y57.458I0.900J0.000
N24490G2X111.869Y56.558I0.000J-0.900
N24500G2X110.969Y55.658I-0.900J0.000
N24510G00Z6.000
N24520G01Z-1.600F20.0
N24530G2X110.069Y56.558I0.000J0.900F600.0
N24540G2X110.969Y57.458I0.900J0.000
N24550G2X111.869Y56.558I0.000J-0.900
N24560G2X110.969Y55.658I-0.900J0.000
N24570G00Z6.000
N24580G01Z-1.700F20.0
N24590G2X110.069Y56.558I0.000J0.900F600.0
N24600G2X110.969Y57.458I0.900J0.000
N24610G2X111.869Y56.558I0.000J-0.900
N24620G2X110.969Y55.658I-0.900J0.000
N24630G00Z6.000
N24640G01Z-1.800F20.0
N24650G2X110.069Y56.558I0.000J0.900F600.0
N24660G2X110.969Y57.458I0.900J0.000
N24670G2X111.869Y56.558I0.000J-0.900
N24680G2X110.969Y55.658I-0.900J0.000
N24690G00Z6.000
N24700G01Z-1.900F20.0
N24710G2X110.069Y56.558I0.000J0.900F600.0
N24720G2X110.969Y57.458I0.900J0.000
N24730G2X111.869Y56.558I0.000J-0.900
N24740G2X110.969Y55.658I-0.900J0.000
N24750G00Z6.000
N24760G01Z-2.000F20.0
N24770G2X110.069Y56.558I0.000J0.900F600.0
N24780G2X110.969Y57.458I0.900J0.000
N24790G2X111.869Y56.558I0.000J-0.900
N24800G2X110.969Y55.658I-0.900J0.000
N24810G00Z6.000
N24820G01Z-2.100F20.0
N24830G2X110.069Y56.558I0.000J0.900F600.0
N24840G2X110.969Y57.458I0.900J0.000
N24850G2X111.869Y56.558I0.000J-0.900
N24860G2X110.969Y55.658I-0.900J0.000
N24870G00Z6.000
N24880G01Z-2.200F20.0
N24890G2X110.069Y56.558I0.000J0.900F600.0
N24900G2X110.969Y57.458I0.900J0.000
N24910G2X111.869Y56.558I0.000J-0.900
N24920G2X110.969Y55.658I-0.900J0.000
N24930G00Z6.000
N24940G01Z-2.300F20.0
N24950G2X110.069Y56.558I0.000J0.900F600.0
N24960G2X110.969Y57.458I0.900J0.000
N24970G2X111.869Y56.558I0.000J-0.900
N24980G2X110.969Y55.658I-0.900J0.000
N24990G00Z6.000
N25000G01Z-2.400F20.0
N25010G2X110.069Y56.558I0.000J0.900F600.0
N25020G2X110.969Y57.458I0.900J0.000
N25030G2X111.869Y56.558I0.000J-0.900
N25040G2X110.969Y55.658I-0.900J0.000
N25050G00Z6.000
N25060G01Z-2.500F20.0
N25070G2X110.069Y56.558I0.000J0.900F600.0
N25080G2X110.969Y57.458I0.900J0.000
N25090G2X111.869Y56.558I0.000J-0.900
N25100G2X110.969Y55.658I-0.900J0.000
N25110G00Z6.000
N25120G01Z-2.600F20.0
N25130G2X110.069Y56.558I0.000J0.900F600.0
N25140G2X110.969Y57.458I0.900J0.000
N25150G2X111.869Y56.558I0.000J-0.900
N25160G2X110.969Y55.658I-0.900J0.000
N25170G00Z6.000
N25180G01Z-2.700F20.0
N25190G2X110.069Y56.558I0.000J0.900F600.0
N25200G2X110.969Y57.458I0.900J0.000
N25210G2X111.869Y56.558I0.000J-0.900
N25220G2X110.969Y55.658I-0.900J0.000
N25230G00Z6.000
N25240G01Z-2.800F20.0
N25250G2X110.069Y56.558I0.000J0.900F600.0
N25260G2X110.969Y57.458I0.900J0.000
N25270G2X111.869Y56.558I0.000J-0.900
N25280G2X110.969Y55.658I-0.900J0.000
N25290G00Z6.000
N25300G01Z-2.900F20.0
N25310G2X110.069Y56.558I0.000J0.900F600.0
N25320G2X110.969Y57.458I0.900J0.000
N25330G2X111.869Y56.558I0.000J-0.900
N25340G2X110.969Y55.658I-0.900J0.000
N25350G00Z6.000
N25360G01Z-3.000F20.0
N25370G2X110.069Y56.558I0.000J0.900F600.0
N25380G2X110.969Y57.458I0.900J0.000
N25390G2X111.869Y56.558I0.000J-0.900
N25400G2X110.969Y55.658I-0.900J0.000
N25410G00Z6.000
N25420G00X102.969
N25430G01Z-0.100F20.0
N25440G2X102.069Y56.558I0.000J0.900F600.0
N25450G2X102.969Y57.458I0.900J0.000
N25460G2X103.869Y56.558I0.000J-0.900
N25470G2X102.969Y55.658I-0.900J0.000
N25480G00Z6.000
N25490G01Z-0.200F20.0
N25500G2X102.069Y56.558I0.000J0.900F600.0
N25510G2X102.969Y57.458I0.900J0.000
N25520G2X103.869Y56.558I0.000J-0.900
N25530G2X102.969Y55.658I-0.900J0.000
N25540G00Z6.000
N25550G01Z-0.300F20.0
N25560G2X102.069Y56.558I0.000J0.900F600.0
N25570G2X102.969Y57.458I0.900J0.000
N25580G2X103.869Y56.558I0.000J-0.900
N25590G2X102.969Y55.658I-0.900J0.000
N25600G00Z6.000
N25610G01Z-0.400F20.0
N25620G2X102.069Y56.558I0.000J0.900F600.0
N25630G2X102.969Y57.458I0.900J0.000
N25640G2X103.869Y56.558I0.000J-0.900
N25650G2X102.969Y55.658I-0.900J0.000
N25660G00Z6.000
N25670G01Z-0.500F20.0
N25680G2X102.069Y56.558I0.000J0.900F600.0
N25690G2X102.969Y57.458I0.900J0.000
N25700G2X103.869Y56.558I0.000J-0.900
N25710G2X102.969Y55.658I-0.900J0.000
N25720G00Z6.000
N25730G01Z-0.600F20.0
N25740G2X102.069Y56.558I0.000J0.900F600.0
N25750G2X102.969Y57.458I0.900J0.000
N25760G2X103.869Y56.558I0.000J-0.900
N25770G2X102.969Y55.658I-0.900J0.000
N25780G00Z6.000
N25790G01Z-0.700F20.0
N25800G2X102.069Y56.558I0.000J0.900F600.0
N25810G2X102.969Y57.458I0.900J0.000
N25820G2X103.869Y56.558I0.000J-0.900
N25830G2X102.969Y55.658I-0.900J0.000
N25840G00Z6.000
N25850G01Z-0.800F20.0
N25860G2X102.069Y56.558I0.000J0.900F600.0
N25870G2X102.969Y57.458I0.900J0.000
N25880G2X103.869Y56.558I0.000J-0.900
N25890G2X102.969Y55.658I-0.900J0.000
N25900G00Z6.000
N25910G01Z-0.900F20.0
N25920G2X102.069Y56.558I0.000J0.900F600.0
N25930G2X102.969Y57.458I0.900J0.000
N25940G2X103.869Y56.558I0.000J-0.900
N25950G2X102.969Y55.658I-0.900J0.000
N25960G00Z6.000
N25970G01Z-1.000F20.0
N25980G2X102.069Y56.558I0.000J0.900F600.0
N25990G2X102.969Y57.458I0.900J0.000
N26000G2X103.869Y56.558I0.000J-0.900
N26010G2X102.969Y55.658I-0.900J0.000
N26020G00Z6.000
N26030G01Z-1.100F20.0
N26040G2X102.069Y56.558I0.000J0.900F600.0
N26050G2X102.969Y57.458I0.900J0.000
N26060G2X103.869Y56.558I0.000J-0.900
N26070G2X102.969Y55.658I-0.900J0.000
N26080G00Z6.000
N26090G01Z-1.200F20.0
N26100G2X102.069Y56.558I0.000J0.900F600.0
N26110G2X102.969Y57.458I0.900J0.000
N26120G2X103.869Y56.558I0.000J-0.900
N26130G2X102.969Y55.658I-0.900J0.000
N26140G00Z6.000
N26150G01Z-1.300F20.0
N26160G2X102.069Y56.558I0.000J0.900F600.0
N26170G2X102.969Y57.458I0.900J0.000
N26180G2X103.869Y56.558I0.000J-0.900
N26190G2X102.969Y55.658I-0.900J0.000
N26200G00Z6.000
N26210G01Z-1.400F20.0
N26220G2X102.069Y56.558I0.000J0.900F600.0
N26230G2X102.969Y57.458I0.900J0.000
N26240G2X103.869Y56.558I0.000J-0.900
N26250G2X102.969Y55.658I-0.900J0.000
N26260G00Z6.000
N26270G01Z-1.500F20.0
N26280G2X102.069Y56.558I0.000J0.900F600.0
N26290G2X102.969Y57.458I0.900J0.000
N26300G2X103.869Y56.558I0.000J-0.900
N26310G2X102.969Y55.658I-0.900J0.000
N26320G00Z6.000
N26330G01Z-1.600F20.0
N26340G2X102.069Y56.558I0.000J0.900F600.0
N26350G2X102.969Y57.458I0.900J0.000
N26360G2X103.869Y56.558I0.000J-0.900
N26370G2X102.969Y55.658I-0.900J0.000
N26380G00Z6.000
N26390G01Z-1.700F20.0
N26400G2X102.069Y56.558I0.000J0.900F600.0
N26410G2X102.969Y57.458I0.900J0.000
N26420G2X103.869Y56.558I0.000J-0.900
N26430G2X102.969Y55.658I-0.900J0.000
N26440G00Z6.000
N26450G01Z-1.800F20.0
N26460G2X102.069Y56.558I0.000J0.900F600.0
N26470G2X102.969Y57.458I0.900J0.000
N26480G2X103.869Y56.558I0.000J-0.900
N26490G2X102.969Y55.658I-0.900J0.000
N26500G00Z6.000
N26510G01Z-1.900F20.0
N26520G2X102.069Y56.558I0.000J0.900F600.0
N26530G2X102.969Y57.458I0.900J0.000
N26540G2X103.869Y56.558I0.000J-0.900
N26550G2X102.969Y55.658I-0.900J0.000
N26560G00Z6.000
N26570G01Z-2.000F20.0
N26580G2X102.069Y56.558I0.000J0.900F600.0
N26590G2X102.969Y57.458I0.900J0.000
N26600G2X103.869Y56.558I0.000J-0.900
N26610G2X102.969Y55.658I-0.900J0.000
N26620G00Z6.000
N26630G01Z-2.100F20.0
N26640G2X102.069Y56.558I0.000J0.900F600.0
N26650G2X102.969Y57.458I0.900J0.000
N26660G2X103.869Y56.558I0.000J-0.900
N26670G2X102.969Y55.658I-0.900J0.000
N26680G00Z6.000
N26690G01Z-2.200F20.0
N26700G2X102.069Y56.558I0.000J0.900F600.0
N26710G2X102.969Y57.458I0.900J0.000
N26720G2X103.869Y56.558I0.000J-0.900
N26730G2X102.969Y55.658I-0.900J0.000
N26740G00Z6.000
N26750G01Z-2.300F20.0
N26760G2X102.069Y56.558I0.000J0.900F600.0
N26770G2X102.969Y57.458I0.900J0.000
N26780G2X103.869Y56.558I0.000J-0.900
N26790G2X102.969Y55.658I-0.900J0.000
N26800G00Z6.000
N26810G01Z-2.400F20.0
N26820G2X102.069Y56.558I0.000J0.900F600.0
N26830G2X102.969Y57.458I0.900J0.000
N26840G2X103.869Y56.558I0.000J-0.900
N26850G2X102.969Y55.658I-0.900J0.000
N26860G00Z6.000
N26870G01Z-2.500F20.0
N26880G2X102.069Y56.558I0.000J0.900F600.0
N26890G2X102.969Y57.458I0.900J0.000
N26900G2X103.869Y56.558I0.000J-0.900
N26910G2X102.969Y55.658I-0.900J0.000
N26920G00Z6.000
N26930G01Z-2.600F20.0
N26940G2X102.069Y56.558I0.000J0.900F600.0
N26950G2X102.969Y57.458I0.900J0.000
N26960G2X103.869Y56.558I0.000J-0.900
N26970G2X102.969Y55.658I-0.900J0.000
N26980G00Z6.000
N26990G01Z-2.700F20.0
N27000G2X102.069Y56.558I0.000J0.900F600.0
N27010G2X102.969Y57.458I0.900J0.000
N27020G2X103.869Y56.558I0.000J-0.900
N27030G2X102.969Y55.658I-0.900J0.000
N27040G00Z6.000
N27050G01Z-2.800F20.0
N27060G2X102.069Y56.558I0.000J0.900F600.0
N27070G2X102.969Y57.458I0.900J0.000
N27080G2X103.869Y56.558I0.000J-0.900
N27090G2X102.969Y55.658I-0.900J0.000
N27100G00Z6.000
N27110G01Z-2.900F20.0
N27120G2X102.069Y56.558I0.000J0.900F600.0
N27130G2X102.969Y57.458I0.900J0.000
N27140G2X103.869Y56.558I0.000J-0.900
N27150G2X102.969Y55.658I-0.900J0.000
N27160G00Z6.000
N27170G01Z-3.000F20.0
N27180G2X102.069Y56.558I0.000J0.900F600.0
N27190G2X102.969Y57.458I0.900J0.000
N27200G2X103.869Y56.558I0.000J-0.900
N27210G2X102.969Y55.658I-0.900J0.000
N27220G00Z6.000
N27230G00X94.969
N27240G01Z-0.100F20.0
N27250G2X94.069Y56.558I0.000J0.900F600.0
N27260G2X94.969Y57.458I0.900J0.000
N27270G2X95.869Y56.558I0.000J-0.900
N27280G2X94.969Y55.658I-0.900J0.000
N27290G00Z6.000
N27300G01Z-0.200F20.0
N27310G2X94.069Y56.558I0.000J0.900F600.0
N27320G2X94.969Y57.458I0.900J0.000
N27330G2X95.869Y56.558I0.000J-0.900
N27340G2X94.969Y55.658I-0.900J0.000
N27350G00Z6.000
N27360G01Z-0.300F20.0
N27370G2X94.069Y56.558I0.000J0.900F600.0
N27380G2X94.969Y57.458I0.900J0.000
N27390G2X95.869Y56.558I0.000J-0.900
N27400G2X94.969Y55.658I-0.900J0.000
N27410G00Z6.000
N27420G01Z-0.400F20.0
N27430G2X94.069Y56.558I0.000J0.900F600.0
N27440G2X94.969Y57.458I0.900J0.000
N27450G2X95.869Y56.558I0.000J-0.900
N27460G2X94.969Y55.658I-0.900J0.000
N27470G00Z6.000
N27480G01Z-0.500F20.0
N27490G2X94.069Y56.558I0.000J0.900F600.0
N27500G2X94.969Y57.458I0.900J0.000
N27510G2X95.869Y56.558I0.000J-0.900
N27520G2X94.969Y55.658I-0.900J0.000
N27530G00Z6.000
N27540G01Z-0.600F20.0
N27550G2X94.069Y56.558I0.000J0.900F600.0
N27560G2X94.969Y57.458I0.900J0.000
N27570G2X95.869Y56.558I0.000J-0.900
N27580G2X94.969Y55.658I-0.900J0.000
N27590G00Z6.000
N27600G01Z-0.700F20.0
N27610G2X94.069Y56.558I0.000J0.900F600.0
N27620G2X94.969Y57.458I0.900J0.000
N27630G2X95.869Y56.558I0.000J-0.900
N27640G2X94.969Y55.658I-0.900J0.000
N27650G00Z6.000
N27660G01Z-0.800F20.0
N27670G2X94.069Y56.558I0.000J0.900F600.0
N27680G2X94.969Y57.458I0.900J0.000
N27690G2X95.869Y56.558I0.000J-0.900
N27700G2X94.969Y55.658I-0.900J0.000
N27710G00Z6.000
N27720G01Z-0.900F20.0
N27730G2X94.069Y56.558I0.000J0.900F600.0
N27740G2X94.969Y57.458I0.900J0.000
N27750G2X95.869Y56.558I0.000J-0.900
N27760G2X94.969Y55.658I-0.900J0.000
N27770G00Z6.000
N27780G01Z-1.000F20.0
N27790G2X94.069Y56.558I0.000J0.900F600.0
N27800G2X94.969Y57.458I0.900J0.000
N27810G2X95.869Y56.558I0.000J-0.900
N27820G2X94.969Y55.658I-0.900J0.000
N27830G00Z6.000
N27840G01Z-1.100F20.0
N27850G2X94.069Y56.558I0.000J0.900F600.0
N27860G2X94.969Y57.458I0.900J0.000
N27870G2X95.869Y56.558I0.000J-0.900
N27880G2X94.969Y55.658I-0.900J0.000
N27890G00Z6.000
N27900G01Z-1.200F20.0
N27910G2X94.069Y56.558I0.000J0.900F600.0
N27920G2X94.969Y57.458I0.900J0.000
N27930G2X95.869Y56.558I0.000J-0.900
N27940G2X94.969Y55.658I-0.900J0.000
N27950G00Z6.000
N27960G01Z-1.300F20.0
N27970G2X94.069Y56.558I0.000J0.900F600.0
N27980G2X94.969Y57.458I0.900J0.000
N27990G2X95.869Y56.558I0.000J-0.900
N28000G2X94.969Y55.658I-0.900J0.000
N28010G00Z6.000
N28020G01Z-1.400F20.0
N28030G2X94.069Y56.558I0.000J0.900F600.0
N28040G2X94.969Y57.458I0.900J0.000
N28050G2X95.869Y56.558I0.000J-0.900
N28060G2X94.969Y55.658I-0.900J0.000
N28070G00Z6.000
N28080G01Z-1.500F20.0
N28090G2X94.069Y56.558I0.000J0.900F600.0
N28100G2X94.969Y57.458I0.900J0.000
N28110G2X95.869Y56.558I0.000J-0.900
N28120G2X94.969Y55.658I-0.900J0.000
N28130G00Z6.000
N28140G01Z-1.600F20.0
N28150G2X94.069Y56.558I0.000J0.900F600.0
N28160G2X94.969Y57.458I0.900J0.000
N28170G2X95.869Y56.558I0.000J-0.900
N28180G2X94.969Y55.658I-0.900J0.000
N28190G00Z6.000
N28200G01Z-1.700F20.0
N28210G2X94.069Y56.558I0.000J0.900F600.0
N28220G2X94.969Y57.458I0.900J0.000
N28230G2X95.869Y56.558I0.000J-0.900
N28240G2X94.969Y55.658I-0.900J0.000
N28250G00Z6.000
N28260G01Z-1.800F20.0
N28270G2X94.069Y56.558I0.000J0.900F600.0
N28280G2X94.969Y57.458I0.900J0.000
N28290G2X95.869Y56.558I0.000J-0.900
N28300G2X94.969Y55.658I-0.900J0.000
N28310G00Z6.000
N28320G01Z-1.900F20.0
N28330G2X94.069Y56.558I0.000J0.900F600.0
N28340G2X94.969Y57.458I0.900J0.000
N28350G2X95.869Y56.558I0.000J-0.900
N28360G2X94.969Y55.658I-0.900J0.000
N28370G00Z6.000
N28380G01Z-2.000F20.0
N28390G2X94.069Y56.558I0.000J0.900F600.0
N28400G2X94.969Y57.458I0.900J0.000
N28410G2X95.869Y56.558I0.000J-0.900
N28420G2X94.969Y55.658I-0.900J0.000
N28430G00Z6.000
N28440G01Z-2.100F20.0
N28450G2X94.069Y56.558I0.000J0.900F600.0
N28460G2X94.969Y57.458I0.900J0.000
N28470G2X95.869Y56.558I0.000J-0.900
N28480G2X94.969Y55.658I-0.900J0.000
N28490G00Z6.000
N28500G01Z-2.200F20.0
N28510G2X94.069Y56.558I0.000J0.900F600.0
N28520G2X94.969Y57.458I0.900J0.000
N28530G2X95.869Y56.558I0.000J-0.900
N28540G2X94.969Y55.658I-0.900J0.000
N28550G00Z6.000
N28560G01Z-2.300F20.0
N28570G2X94.069Y56.558I0.000J0.900F600.0
N28580G2X94.969Y57.458I0.900J0.000
N28590G2X95.869Y56.558I0.000J-0.900
N28600G2X94.969Y55.658I-0.900J0.000
N28610G00Z6.000
N28620G01Z-2.400F20.0
N28630G2X94.069Y56.558I0.000J0.900F600.0
N28640G2X94.969Y57.458I0.900J0.000
N28650G2X95.869Y56.558I0.000J-0.900
N28660G2X94.969Y55.658I-0.900J0.000
N28670G00Z6.000
N28680G01Z-2.500F20.0
N28690G2X94.069Y56.558I0.000J0.900F600.0
N28700G2X94.969Y57.458I0.900J0.000
N28710G2X95.869Y56.558I0.000J-0.900
N28720G2X94.969Y55.658I-0.900J0.000
N28730G00Z6.000
N28740G01Z-2.600F20.0
N28750G2X94.069Y56.558I0.000J0.900F600.0
N28760G2X94.969Y57.458I0.900J0.000
N28770G2X95.869Y56.558I0.000J-0.900
N28780G2X94.969Y55.658I-0.900J0.000
N28790G00Z6.000
N28800G01Z-2.700F20.0
N28810G2X94.069Y56.558I0.000J0.900F600.0
N28820G2X94.969Y57.458I0.900J0.000
N28830G2X95.869Y56.558I0.000J-0.900
N28840G2X94.969Y55.658I-0.900J0.000
N28850G00Z6.000
N28860G01Z-2.800F20.0
N28870G2X94.069Y56.558I0.000J0.900F600.0
N28880G2X94.969Y57.458I0.900J0.000
N28890G2X95.869Y56.558I0.000J-0.900
N28900G2X94.969Y55.658I-0.900J0.000
N28910G00Z6.000
N28920G01Z-2.900F20.0
N28930G2X94.069Y56.558I0.000J0.900F600.0
N28940G2X94.969Y57.458I0.900J0.000
N28950G2X95.869Y56.558I0.000J-0.900
N28960G2X94.969Y55.658I-0.900J0.000
N28970G00Z6.000
N28980G01Z-3.000F20.0
N28990G2X94.069Y56.558I0.000J0.900F600.0
N29000G2X94.969Y57.458I0.900J0.000
N29010G2X95.869Y56.558I0.000J-0.900
N29020G2X94.969Y55.658I-0.900J0.000
N29030G00Z6.000
N29040G00X56.348Y4.023Z6.000
N29050G01Z-0.100F20.0
N29060G2Y6.023I0.000J1.000F600.0
N29070G01X57.338
N29080Y4.023
N29090X56.348
N29100Y3.023
N29110G2Y7.023I0.000J2.000
N29120G01X58.338
N29130Y3.023
N29140X56.348
N29150G00Z6.000
N29160G00Y4.023
N29170G01Z-0.200F20.0
N29180G2Y6.023I0.000J1.000F600.0
N29190G01X57.338
N29200Y4.023
N29210X56.348
N29220Y3.023
N29230G2Y7.023I0.000J2.000
N29240G01X58.338
N29250Y3.023
N29260X56.348
N29270G00Z6.000
N29280G00Y4.023
N29290G01Z-0.300F20.0
N29300G2Y6.023I0.000J1.000F600.0
N29310G01X57.338
N29320Y4.023
N29330X56.348
N29340Y3.023
N29350G2Y7.023I0.000J2.000
N29360G01X58.338
N29370Y3.023
N29380X56.348
N29390G00Z6.000
N29400G00Y4.023
N29410G01Z-0.400F20.0
N29420G2Y6.023I0.000J1.000F600.0
N29430G01X57.338
N29440Y4.023
N29450X56.348
N29460Y3.023
N29470G2Y7.023I0.000J2.000
N29480G01X58.338
N29490Y3.023
N29500X56.348
N29510G00Z6.000
N29520G00Y4.023
N29530G01Z-0.500F20.0
N29540G2Y6.023I0.000J1.000F600.0
N29550G01X57.338
N29560Y4.023
N29570X56.348
N29580Y3.023
N29590G2Y7.023I0.000J2.000
N29600G01X58.338
N29610Y3.023
N29620X56.348
N29630G00Z6.000
N29640G00Y4.023
N29650G01Z-0.600F20.0
N29660G2Y6.023I0.000J1.000F600.0
N29670G01X57.338
N29680Y4.023
N29690X56.348
N29700Y3.023
N29710G2Y7.023I0.000J2.000
N29720G01X58.338
N29730Y3.023
N29740X56.348
N29750G00Z6.000
N29760G00Y4.023
N29770G01Z-0.700F20.0
N29780G2Y6.023I0.000J1.000F600.0
N29790G01X57.338
N29800Y4.023
N29810X56.348
N29820Y3.023
N29830G2Y7.023I0.000J2.000
N29840G01X58.338
N29850Y3.023
N29860X56.348
N29870G00Z6.000
N29880G00Y4.023
N29890G01Z-0.800F20.0
N29900G2Y6.023I0.000J1.000F600.0
N29910G01X57.338
N29920Y4.023
N29930X56.348
N29940Y3.023
N29950G2Y7.023I0.000J2.000
N29960G01X58.338
N29970Y3.023
N29980X56.348
N29990G00Z6.000
N30000G00Y4.023
N30010G01Z-0.900F20.0
N30020G2Y6.023I0.000J1.000F600.0
N30030G01X57.338
N30040Y4.023
N30050X56.348
N30060Y3.023
N30070G2Y7.023I0.000J2.000
N30080G01X58.338
N30090Y3.023
N30100X56.348
N30110G00Z6.000
N30120G00Y4.023
N30130G01Z-1.000F20.0
N30140G2Y6.023I0.000J1.000F600.0
N30150G01X57.338
N30160Y4.023
N30170X56.348
N30180Y3.023
N30190G2Y7.023I0.000J2.000
N30200G01X58.338
N30210Y3.023
N30220X56.348
N30230G00Z6.000
N30240G00Y4.023
N30250G01Z-1.100F20.0
N30260G2Y6.023I0.000J1.000F600.0
N30270G01X57.338
N30280Y4.023
N30290X56.348
N30300Y3.023
N30310G2Y7.023I0.000J2.000
N30320G01X58.338
N30330Y3.023
N30340X56.348
N30350G00Z6.000
N30360G00Y4.023
N30370G01Z-1.200F20.0
N30380G2Y6.023I0.000J1.000F600.0
N30390G01X57.338
N30400Y4.023
N30410X56.348
N30420Y3.023
N30430G2Y7.023I0.000J2.000
N30440G01X58.338
N30450Y3.023
N30460X56.348
N30470G00Z6.000
N30480G00Y4.023
N30490G01Z-1.300F20.0
N30500G2Y6.023I0.000J1.000F600.0
N30510G01X57.338
N30520Y4.023
N30530X56.348
N30540Y3.023
N30550G2Y7.023I0.000J2.000
N30560G01X58.338
N30570Y3.023
N30580X56.348
N30590G00Z6.000
N30600G00Y4.023
N30610G01Z-1.400F20.0
N30620G2Y6.023I0.000J1.000F600.0
N30630G01X57.338
N30640Y4.023
N30650X56.348
N30660Y3.023
N30670G2Y7.023I0.000J2.000
N30680G01X58.338
N30690Y3.023
N30700X56.348
N30710G00Z6.000
N30720G00Y4.023
N30730G01Z-1.500F20.0
N30740G2Y6.023I0.000J1.000F600.0
N30750G01X57.338
N30760Y4.023
N30770X56.348
N30780Y3.023
N30790G2Y7.023I0.000J2.000
N30800G01X58.338
N30810Y3.023
N30820X56.348
N30830G00Z6.000
N30840G00Y4.023
N30850G01Z-1.600F20.0
N30860G2Y6.023I0.000J1.000F600.0
N30870G01X57.338
N30880Y4.023
N30890X56.348
N30900Y3.023
N30910G2Y7.023I0.000J2.000
N30920G01X58.338
N30930Y3.023
N30940X56.348
N30950G00Z6.000
N30960G00Y4.023
N30970G01Z-1.700F20.0
N30980G2Y6.023I0.000J1.000F600.0
N30990G01X57.338
N31000Y4.023
N31010X56.348
N31020Y3.023
N31030G2Y7.023I0.000J2.000
N31040G01X58.338
N31050Y3.023
N31060X56.348
N31070G00Z6.000
N31080G00Y4.023
N31090G01Z-1.800F20.0
N31100G2Y6.023I0.000J1.000F600.0
N31110G01X57.338
N31120Y4.023
N31130X56.348
N31140Y3.023
N31150G2Y7.023I0.000J2.000
N31160G01X58.338
N31170Y3.023
N31180X56.348
N31190G00Z6.000
N31200G00Y4.023
N31210G01Z-1.900F20.0
N31220G2Y6.023I0.000J1.000F600.0
N31230G01X57.338
N31240Y4.023
N31250X56.348
N31260Y3.023
N31270G2Y7.023I0.000J2.000
N31280G01X58.338
N31290Y3.023
N31300X56.348
N31310G00Z6.000
N31320G00Y4.023
N31330G01Z-2.000F20.0
N31340G2Y6.023I0.000J1.000F600.0
N31350G01X57.338
N31360Y4.023
N31370X56.348
N31380Y3.023
N31390G2Y7.023I0.000J2.000
N31400G01X58.338
N31410Y3.023
N31420X56.348
N31430G00Z6.000
N31440G00Y4.023
N31450G01Z-2.100F20.0
N31460G2Y6.023I0.000J1.000F600.0
N31470G01X57.338
N31480Y4.023
N31490X56.348
N31500Y3.023
N31510G2Y7.023I0.000J2.000
N31520G01X58.338
N31530Y3.023
N31540X56.348
N31550G00Z6.000
N31560G00Y4.023
N31570G01Z-2.200F20.0
N31580G2Y6.023I0.000J1.000F600.0
N31590G01X57.338
N31600Y4.023
N31610X56.348
N31620Y3.023
N31630G2Y7.023I0.000J2.000
N31640G01X58.338
N31650Y3.023
N31660X56.348
N31670G00Z6.000
N31680G00Y4.023
N31690G01Z-2.300F20.0
N31700G2Y6.023I0.000J1.000F600.0
N31710G01X57.338
N31720Y4.023
N31730X56.348
N31740Y3.023
N31750G2Y7.023I0.000J2.000
N31760G01X58.338
N31770Y3.023
N31780X56.348
N31790G00Z6.000
N31800G00Y4.023
N31810G01Z-2.400F20.0
N31820G2Y6.023I0.000J1.000F600.0
N31830G01X57.338
N31840Y4.023
N31850X56.348
N31860Y3.023
N31870G2Y7.023I0.000J2.000
N31880G01X58.338
N31890Y3.023
N31900X56.348
N31910G00Z6.000
N31920G00Y4.023
N31930G01Z-2.500F20.0
N31940G2Y6.023I0.000J1.000F600.0
N31950G01X57.338
N31960Y4.023
N31970X56.348
N31980Y3.023
N31990G2Y7.023I0.000J2.000
N32000G01X58.338
N32010Y3.023
N32020X56.348
N32030G00Z6.000
N32040G00Y4.023
N32050G01Z-2.600F20.0
N32060G2Y6.023I0.000J1.000F600.0
N32070G01X57.338
N32080Y4.023
N32090X56.348
N32100Y3.023
N32110G2Y7.023I0.000J2.000
N32120G01X58.338
N32130Y3.023
N32140X56.348
N32150G00Z6.000
N32160G00Y4.023
N32170G01Z-2.700F20.0
N32180G2Y6.023I0.000J1.000F600.0
N32190G01X57.338
N32200Y4.023
N32210X56.348
N32220Y3.023
N32230G2Y7.023I0.000J2.000
N32240G01X58.338
N32250Y3.023
N32260X56.348
N32270G00Z6.000
N32280G00Y4.023
N32290G01Z-2.800F20.0
N32300G2Y6.023I0.000J1.000F600.0
N32310G01X57.338
N32320Y4.023
N32330X56.348
N32340Y3.023
N32350G2Y7.023I0.000J2.000
N32360G01X58.338
N32370Y3.023
N32380X56.348
N32390G00Z6.000
N32400G00Y4.023
N32410G01Z-2.900F20.0
N32420G2Y6.023I0.000J1.000F600.0
N32430G01X57.338
N32440Y4.023
N32450X56.348
N32460Y3.023
N32470G2Y7.023I0.000J2.000
N32480G01X58.338
N32490Y3.023
N32500X56.348
N32510G00Z6.000
N32520G00Y4.023
N32530G01Z-3.000F20.0
N32540G2Y6.023I0.000J1.000F600.0
N32550G01X57.338
N32560Y4.023
N32570X56.348
N32580Y3.023
N32590G2Y7.023I0.000J2.000
N32600G01X58.338
N32610Y3.023
N32620X56.348
N32630G00Z6.000
N32640G00Y4.023
N32650G01Z-3.100F20.0
N32660G2Y6.023I0.000J1.000F600.0
N32670G01X57.338
N32680Y4.023
N32690X56.348
N32700Y3.023
N32710G2Y7.023I0.000J2.000
N32720G01X58.338
N32730Y3.023
N32740X56.348
N32750G00Z6.000
N32760G00Y4.023
N32770G01Z-3.200F20.0
N32780G2Y6.023I0.000J1.000F600.0
N32790G01X57.338
N32800Y4.023
N32810X56.348
N32820Y3.023
N32830G2Y7.023I0.000J2.000
N32840G01X58.338
N32850Y3.023
N32860X56.348
N32870G00Z6.000
N32880G00Y4.023
N32890G01Z-3.300F20.0
N32900G2Y6.023I0.000J1.000F600.0
N32910G01X57.338
N32920Y4.023
N32930X56.348
N32940Y3.023
N32950G2Y7.023I0.000J2.000
N32960G01X58.338
N32970Y3.023
N32980X56.348
N32990G00Z6.000
N33000G00Y4.023
N33010G01Z-3.400F20.0
N33020G2Y6.023I0.000J1.000F600.0
N33030G01X57.338
N33040Y4.023
N33050X56.348
N33060Y3.023
N33070G2Y7.023I0.000J2.000
N33080G01X58.338
N33090Y3.023
N33100X56.348
N33110G00Z6.000
N33120G00Y4.023
N33130G01Z-3.500F20.0
N33140G2Y6.023I0.000J1.000F600.0
N33150G01X57.338
N33160Y4.023
N33170X56.348
N33180Y3.023
N33190G2Y7.023I0.000J2.000
N33200G01X58.338
N33210Y3.023
N33220X56.348
N33230G00Z6.000
N33240G00Y4.023
N33250G01Z-3.600F20.0
N33260G2Y6.023I0.000J1.000F600.0
N33270G01X57.338
N33280Y4.023
N33290X56.348
N33300Y3.023
N33310G2Y7.023I0.000J2.000
N33320G01X58.338
N33330Y3.023
N33340X56.348
N33350G00Z6.000
N33360G00Y4.023
N33370G01Z-3.700F20.0
N33380G2Y6.023I0.000J1.000F600.0
N33390G01X57.338
N33400Y4.023
N33410X56.348
N33420Y3.023
N33430G2Y7.023I0.000J2.000
N33440G01X58.338
N33450Y3.023
N33460X56.348
N33470G00Z6.000
N33480G00Y4.023
N33490G01Z-3.800F20.0
N33500G2Y6.023I0.000J1.000F600.0
N33510G01X57.338
N33520Y4.023
N33530X56.348
N33540Y3.023
N33550G2Y7.023I0.000J2.000
N33560G01X58.338
N33570Y3.023
N33580X56.348
N33590G00Z6.000
N33600G00Y4.023
N33610G01Z-3.900F20.0
N33620G2Y6.023I0.000J1.000F600.0
N33630G01X57.338
N33640Y4.023
N33650X56.348
N33660Y3.023
N33670G2Y7.023I0.000J2.000
N33680G01X58.338
N33690Y3.023
N33700X56.348
N33710G00Z6.000
N33720G00Y4.023
N33730G01Z-4.000F20.0
N33740G2Y6.023I0.000J1.000F600.0
N33750G01X57.338
N33760Y4.023
N33770X56.348
N33780Y3.023
N33790G2Y7.023I0.000J2.000
N33800G01X58.338
N33810Y3.023
N33820X56.348
N33830G00Z6.000
N33840G00X116.469Y5.058
N33850G01Z-0.100F20.0
N33860G2X117.469Y6.058I1.000J0.000F600.0
N33870G01X118.459
N33880Y4.058
N33890X117.469
N33900G2X116.469Y5.058I0.000J1.000
N33910G01X115.469
N33920G2X117.469Y7.058I2.000J0.000
N33930G01X119.459
N33940Y3.058
N33950X117.469
N33960G2X115.469Y5.058I0.000J2.000
N33970G00Z6.000
N33980G00X116.469
N33990G01Z-0.200F20.0
N34000G2X117.469Y6.058I1.000J0.000F600.0
N34010G01X118.459
N34020Y4.058
N34030X117.469
N34040G2X116.469Y5.058I0.000J1.000
N34050G01X115.469
N34060G2X117.469Y7.058I2.000J0.000
N34070G01X119.459
N34080Y3.058
N34090X117.469
N34100G2X115.469Y5.058I0.000J2.000
N34110G00Z6.000
N34120G00X116.469
N34130G01Z-0.300F20.0
N34140G2X117.469Y6.058I1.000J0.000F600.0
N34150G01X118.459
N34160Y4.058
N34170X117.469
N34180G2X116.469Y5.058I0.000J1.000
N34190G01X115.469
N34200G2X117.469Y7.058I2.000J0.000
N34210G01X119.459
N34220Y3.058
N34230X117.469
N34240G2X115.469Y5.058I0.000J2.000
N34250G00Z6.000
N34260G00X116.469
N34270G01Z-0.400F20.0
N34280G2X117.469Y6.058I1.000J0.000F600.0
N34290G01X118.459
N34300Y4.058
N34310X117.469
N34320G2X116.469Y5.058I0.000J1.000
N34330G01X115.469
N34340G2X117.469Y7.058I2.000J0.000
N34350G01X119.459
N34360Y3.058
N34370X117.469
N34380G2X115.469Y5.058I0.000J2.000
N34390G00Z6.000
N34400G00X116.469
N34410G01Z-0.500F20.0
N34420G2X117.469Y6.058I1.000J0.000F600.0
N34430G01X118.459
N34440Y4.058
N34450X117.469
N34460G2X116.469Y5.058I0.000J1.000
N34470G01X115.469
N34480G2X117.469Y7.058I2.000J0.000
N34490G01X119.459
N34500Y3.058
N34510X117.469
N34520G2X115.469Y5.058I0.000J2.000
N34530G00Z6.000
N34540G00X116.469
N34550G01Z-0.600F20.0
N34560G2X117.469Y6.058I1.000J0.000F600.0
N34570G01X118.459
N34580Y4.058
N34590X117.469
N34600G2X116.469Y5.058I0.000J1.000
N34610G01X115.469
N34620G2X117.469Y7.058I2.000J0.000
N34630G01X119.459
N34640Y3.058
N34650X117.469
N34660G2X115.469Y5.058I0.000J2.000
N34670G00Z6.000
N34680G00X116.469
N34690G01Z-0.700F20.0
N34700G2X117.469Y6.058I1.000J0.000F600.0
N34710G01X118.459
N34720Y4.058
N34730X117.469
